;FLAVOR:UltiGCode
;TIME:4913
;MATERIAL:8310
;MATERIAL2:0
;NOZZLE_DIAMETER:0.4
;MINX:82.119
;MINY:81.347
;MINZ:0.17
;MAXX:143.017
;MAXY:141.961
;MAXZ:32.52
;TARGET_MACHINE.NAME:Ultimaker 2+
;Generated with Cura_SteamEngine 5.6.0
M82 ;absolute extrusion mode
G0 F3000 Y50 ;avoid prime blob
G92 E0
G92 E0
G10
;LAYER_COUNT:216
;LAYER:0
M107
G0 F9000 X87.367 Y83.305 Z0.27
;TYPE:SKIRT
G11
G1 F1800 X89.15 Y81.912 E0.24437
G1 X89.865 Y81.593 E0.32892
G1 X90.352 Y81.459 E0.38347
G1 X90.995 Y81.389 E0.45333
G1 X93.311 Y81.348 E0.70349
G1 X110.806 Y81.347 E2.59295
G1 X111.57 Y81.538 E2.67801
G1 X112.124 Y81.778 E2.74321
G1 X114.958 Y83.303 E3.09078
G1 X117.136 Y84.397 E3.35401
G1 X118.041 Y84.838 E3.46274
G1 X118.604 Y85.179 E3.53383
G1 X119.379 Y85.752 E3.63792
G1 X120.005 Y86.498 E3.7431
G1 X120.71 Y87.447 E3.87078
G1 X122.355 Y89.601 E4.16349
G1 X124.097 Y91.753 E4.46251
G1 X125.83 Y93.774 E4.75003
G1 X127.702 Y95.835 E5.05073
G1 X129.591 Y97.802 E5.34527
G1 X131.518 Y99.697 E5.63715
G1 X132.833 Y100.907 E5.83015
G1 X133.878 Y101.886 E5.9848
G1 X134.581 Y102.631 E6.09543
G1 X135.092 Y103.328 E6.18876
G1 X135.577 Y104.387 E6.31456
G1 X136.181 Y105.748 E6.47537
G1 X137.315 Y108.122 E6.75951
G1 X138.59 Y110.605 E7.06097
G1 X139.887 Y112.969 E7.35218
G1 X140.432 Y113.907 E7.46934
G1 X140.817 Y114.602 E7.55515
G1 X141.402 Y115.777 E7.69691
G1 X141.798 Y116.752 E7.81056
G1 X142.161 Y117.8 E7.93034
G1 X142.458 Y118.848 E8.04798
G1 X142.651 Y119.711 E8.14349
G1 X142.772 Y120.374 E8.21628
G1 X142.907 Y121.349 E8.32258
G1 X142.989 Y122.241 E8.41932
G1 X143.017 Y123.387 E8.54313
G1 X142.978 Y124.607 E8.67496
G1 X142.928 Y125.198 E8.73901
G1 X142.857 Y125.809 E8.80544
G1 X142.703 Y126.781 E8.91173
G1 X142.545 Y127.545 E8.99599
G1 X142.276 Y128.576 E9.11106
G1 X141.988 Y129.474 E9.21291
G1 X141.796 Y130.006 E9.274
G1 X141.555 Y130.604 E9.34363
G1 X141.074 Y131.651 E9.46807
G1 X140.548 Y132.648 E9.58981
G1 X140.077 Y133.408 E9.68637
G1 X139.739 Y133.916 E9.75227
G1 X139.165 Y134.704 E9.85756
G1 X138.605 Y135.406 E9.95454
G1 X137.684 Y136.406 E10.10137
G1 X136.895 Y137.161 E10.21931
G1 X136.189 Y137.768 E10.31986
G1 X135.19 Y138.53 E10.45556
G1 X134.27 Y139.142 E10.5749
G1 X133.379 Y139.665 E10.68648
G1 X132.863 Y139.937 E10.74947
G1 X132.333 Y140.196 E10.81318
G1 X131.361 Y140.62 E10.92771
G1 X130.515 Y140.935 E11.02521
G1 X129.848 Y141.152 E11.10096
G1 X129.275 Y141.316 E11.16533
G1 X128.392 Y141.531 E11.26348
G1 X127.543 Y141.696 E11.35689
G1 X126.452 Y141.847 E11.47584
G1 X125.285 Y141.945 E11.60232
G1 X124.114 Y141.961 E11.7288
G1 X123.209 Y141.916 E11.82666
G1 X121.927 Y141.795 E11.96573
G1 X120.626 Y141.563 E12.10845
G1 X119.941 Y141.405 E12.18438
G1 X118.857 Y141.099 E12.30602
G1 X117.72 Y140.709 E12.43584
G1 X116.603 Y140.225 E12.56732
G1 X115.772 Y139.821 E12.66711
G1 X114.563 Y139.116 E12.81826
G1 X113.656 Y138.509 E12.93613
G1 X112.784 Y137.85 E13.05417
G1 X112.276 Y137.424 E13.12577
G1 X111.497 Y136.713 E13.23968
G1 X110.746 Y135.968 E13.35393
G1 X109.653 Y134.855 E13.5224
G1 X107.685 Y132.965 E13.81709
G1 X105.675 Y131.139 E14.11037
G1 X103.618 Y129.376 E14.40296
G1 X101.491 Y127.652 E14.69865
G1 X99.323 Y125.996 E14.99329
G1 X97.112 Y124.402 E15.28766
G1 X94.847 Y122.867 E15.58316
G1 X91.586 Y120.814 E15.99934
G1 X90.907 Y120.405 E16.08494
G1 X90.384 Y120.066 E16.15226
G1 X89.51 Y119.446 E16.26799
G1 X88.806 Y118.888 E16.365
G1 X88.023 Y118.209 E16.47694
G1 X86.91 Y117.083 E16.64793
G1 X85.939 Y115.9 E16.81322
G1 X85.246 Y114.945 E16.94065
G1 X84.729 Y114.111 E17.04662
G1 X84.298 Y113.347 E17.14136
G1 X83.826 Y112.393 E17.25631
G1 X83.269 Y111.077 E17.41065
G1 X82.899 Y109.945 E17.53927
G1 X82.666 Y109.097 E17.63425
G1 X82.475 Y108.243 E17.72876
G1 X82.265 Y106.948 E17.87044
G1 X82.179 Y106.115 E17.96089
G1 X82.138 Y105.468 E18.0309
G1 X82.119 Y104.35 E18.15166
G1 X82.158 Y103.369 E18.2577
G1 X82.209 Y102.771 E18.32251
G1 X82.283 Y102.144 E18.3907
G1 X82.41 Y101.333 E18.47936
G1 X82.581 Y100.495 E18.57173
G1 X82.814 Y99.573 E18.67443
G1 X83.665 Y96.557 E19.01288
G1 X84.326 Y93.92 E19.30648
G1 X84.921 Y91.22 E19.60508
G1 X85.423 Y88.595 E19.89372
G1 X85.65 Y87.218 E20.04444
G1 X85.997 Y85.614 E20.22168
G1 X86.229 Y84.956 E20.29703
G1 X86.767 Y83.947 E20.42053
G1 X87.367 Y83.305 E20.51543
G0 F9000 X87.613 Y83.62
G1 F1800 X89.358 Y82.257 E20.75457
G1 X89.971 Y81.979 E20.82726
G1 X90.458 Y81.845 E20.88181
G1 X91.002 Y81.789 E20.94087
G1 X93.311 Y81.748 E21.19029
G1 X110.756 Y81.747 E23.07435
G1 X111.412 Y81.906 E23.14724
G1 X111.934 Y82.13 E23.20859
G1 X114.767 Y83.655 E23.55607
G1 X116.961 Y84.757 E23.82123
G1 X117.866 Y85.198 E23.92996
G1 X118.366 Y85.501 E23.9931
G1 X119.106 Y86.048 E24.09248
G1 X119.684 Y86.736 E24.18953
G1 X120.392 Y87.69 E24.31783
G1 X122.044 Y89.853 E24.61178
G1 X123.786 Y92.005 E24.9108
G1 X125.534 Y94.043 E25.20077
G1 X127.406 Y96.104 E25.50147
G1 X129.311 Y98.087 E25.79845
G1 X131.247 Y99.991 E26.09171
G1 X132.56 Y101.199 E26.2844
G1 X133.588 Y102.161 E26.43646
G1 X134.258 Y102.867 E26.54157
G1 X134.744 Y103.53 E26.63035
G1 X135.211 Y104.549 E26.75141
G1 X135.815 Y105.91 E26.91223
G1 X136.959 Y108.305 E27.19888
G1 X138.239 Y110.797 E27.50144
G1 X139.541 Y113.17 E27.79377
G1 X140.082 Y114.101 E27.91006
G1 X140.459 Y114.78 E27.99394
G1 X141.031 Y115.928 E28.13246
G1 X141.427 Y116.903 E28.24611
G1 X141.776 Y117.909 E28.36111
G1 X142.073 Y118.957 E28.47875
G1 X142.258 Y119.783 E28.57017
G1 X142.376 Y120.429 E28.64109
G1 X142.509 Y121.386 E28.74544
G1 X142.589 Y122.251 E28.83926
G1 X142.617 Y123.374 E28.96058
G1 X142.579 Y124.574 E29.09025
G1 X142.531 Y125.152 E29.15289
G1 X142.462 Y125.746 E29.21747
G1 X142.311 Y126.7 E29.32179
G1 X142.158 Y127.444 E29.40382
G1 X141.895 Y128.454 E29.51654
G1 X141.612 Y129.338 E29.61678
G1 X141.425 Y129.856 E29.67626
G1 X141.184 Y130.454 E29.74589
G1 X140.72 Y131.464 E29.86593
G1 X140.194 Y132.461 E29.98767
G1 X139.744 Y133.186 E30.07983
G1 X139.406 Y133.694 E30.14573
G1 X138.852 Y134.455 E30.24739
G1 X138.292 Y135.157 E30.34437
G1 X137.407 Y136.117 E30.48539
G1 X136.634 Y136.858 E30.60103
G1 X135.946 Y137.45 E30.69906
G1 X134.968 Y138.197 E30.83197
G1 X134.067 Y138.797 E30.94888
G1 X133.192 Y139.311 E31.05848
G1 X132.687 Y139.578 E31.12017
G1 X132.173 Y139.829 E31.18195
G1 X131.221 Y140.245 E31.29415
G1 X130.391 Y140.555 E31.38984
G1 X129.738 Y140.767 E31.46399
G1 X129.18 Y140.927 E31.52668
G1 X128.316 Y141.138 E31.62273
G1 X127.467 Y141.303 E31.71614
G1 X126.419 Y141.448 E31.8304
G1 X125.252 Y141.546 E31.95688
G1 X124.134 Y141.561 E32.07764
G1 X123.229 Y141.516 E32.1755
G1 X121.997 Y141.401 E32.30913
G1 X120.716 Y141.173 E32.44966
G1 X120.05 Y141.02 E32.52346
G1 X118.966 Y140.714 E32.6451
G1 X117.879 Y140.342 E32.76918
G1 X116.778 Y139.865 E32.89877
G1 X115.947 Y139.461 E32.99856
G1 X114.765 Y138.771 E33.14638
G1 X113.897 Y138.19 E33.25919
G1 X113.041 Y137.543 E33.37507
G1 X112.546 Y137.129 E33.44476
G1 X111.779 Y136.429 E33.55691
G1 X111.031 Y135.688 E33.67062
G1 X109.938 Y134.575 E33.8391
G1 X107.954 Y132.669 E34.13623
G1 X105.944 Y130.843 E34.42951
G1 X103.87 Y129.065 E34.72455
G1 X101.743 Y127.341 E35.02024
G1 X99.557 Y125.671 E35.31734
G1 X97.346 Y124.078 E35.61165
G1 X95.071 Y122.536 E35.90847
G1 X91.792 Y120.471 E36.32698
G1 X91.124 Y120.069 E36.41118
G1 X90.615 Y119.74 E36.47663
G1 X89.758 Y119.133 E36.59006
G1 X89.068 Y118.586 E36.68515
G1 X88.285 Y117.907 E36.79708
G1 X87.219 Y116.829 E36.96082
G1 X86.263 Y115.665 E37.12349
G1 X85.57 Y114.71 E37.25093
G1 X85.077 Y113.914 E37.35205
G1 X84.657 Y113.17 E37.44432
G1 X84.185 Y112.216 E37.55927
G1 X83.649 Y110.953 E37.70745
G1 X83.285 Y109.839 E37.83402
G1 X83.052 Y108.991 E37.929
G1 X82.87 Y108.179 E38.01887
G1 X82.663 Y106.907 E38.15806
G1 X82.578 Y106.09 E38.24677
G1 X82.538 Y105.461 E38.31484
G1 X82.519 Y104.366 E38.43312
G1 X82.557 Y103.402 E38.53731
G1 X82.606 Y102.818 E38.6006
G1 X82.678 Y102.206 E38.66715
G1 X82.802 Y101.413 E38.75384
G1 X82.969 Y100.593 E38.84422
G1 X83.199 Y99.682 E38.94569
G1 X84.05 Y96.666 E39.28414
G1 X84.717 Y94.006 E39.58031
G1 X85.312 Y91.306 E39.87891
G1 X85.816 Y88.67 E40.16875
G1 X86.041 Y87.302 E40.31848
G1 X86.375 Y85.744 E40.49057
G1 X86.582 Y85.144 E40.55912
G1 X87.095 Y84.181 E40.67696
G1 X87.613 Y83.62 E40.75942
G10
G0 F9000 X89.884 Y86.151
G11
G1 F1800 X90.294 Y85.868 E40.81323
G1 X90.743 Y85.588 E40.87038
G1 X90.782 Y85.556 E40.87583
G1 X91.108 Y85.213 E40.92693
G1 X91.297 Y85.289 E40.94893
G1 X91.294 Y92.111 E41.68571
G1 X91.052 Y92.294 E41.71848
G1 X91.044 Y92.3 E41.71956
G1 X90.262 Y92.948 E41.82924
G1 X90.076 Y92.821 E41.85356
G1 X90.245 Y92.318 E41.91087
G1 X90.255 Y92.259 E41.91733
G1 X90.274 Y91.464 E42.00322
G1 X90.267 Y91.405 E42.00964
G1 X90.124 Y90.895 E42.06684
G1 X90.099 Y90.841 E42.07327
G1 X89.639 Y90.127 E42.165
G1 X89.411 Y89.206 E42.26747
G1 X89.452 Y87.501 E42.45166
G1 X89.7 Y86.468 E42.56639
G1 X89.884 Y86.151 E42.60598
G0 F9000 X90.184 Y86.43
G1 F1800 X90.521 Y86.197 E42.65023
G1 X90.897 Y85.963 E42.69806
G1 X90.894 Y91.912 E43.34055
G1 X90.811 Y91.975 E43.3518
G1 X90.789 Y91.992 E43.35481
G1 X90.659 Y92.1 E43.37306
G1 X90.674 Y91.473 E43.44079
G1 X90.652 Y91.297 E43.45995
G1 X90.509 Y90.787 E43.51715
G1 X90.435 Y90.624 E43.53649
G1 X90.011 Y89.966 E43.62103
G1 X89.812 Y89.163 E43.71038
G1 X89.851 Y87.552 E43.88441
G1 X90.075 Y86.616 E43.98836
G1 X90.184 Y86.43 E44.01164
G0 F9000 X90.486 Y86.707
G1 F1800 X90.496 Y86.7 E44.01296
G1 X90.495 Y89.977 E44.36687
G1 X90.384 Y89.805 E44.38898
G1 X90.213 Y89.116 E44.46565
G1 X90.25 Y87.604 E44.629
G1 X90.45 Y86.769 E44.72173
G1 X90.486 Y86.707 E44.72947
G10
G0 F9000 X91.505 Y85.087
G0 X92.127 Y84.497
G0 X109.287 Y84.498
G0 X110.084 Y85.223
G11
G1 F1800 X110.312 Y85.167 E44.75483
G1 X110.375 Y85.286 E44.76937
G1 X110.408 Y85.332 E44.77548
G1 X110.685 Y85.62 E44.81864
G1 X110.709 Y85.641 E44.82208
G1 X111.17 Y85.986 E44.88427
G1 X111.753 Y86.864 E44.99809
G1 X111.794 Y86.908 E45.00459
G1 X112.415 Y87.411 E45.0909
G1 X112.466 Y87.442 E45.09734
G1 X112.834 Y87.59 E45.14018
G1 X112.893 Y87.603 E45.14671
G1 X113.688 Y87.668 E45.23285
G1 X113.763 Y87.66 E45.241
G1 X114.008 Y87.584 E45.2687
G1 X114.133 Y87.767 E45.29264
G1 X113.612 Y88.417 E45.3826
G1 X113.58 Y88.475 E45.38976
G1 X113.33 Y89.179 E45.47044
G1 X113.318 Y89.246 E45.47779
G1 X113.318 Y89.989 E45.55804
G1 X113.33 Y90.056 E45.56539
G1 X113.581 Y90.761 E45.64621
G1 X113.613 Y90.82 E45.65346
G1 X114.103 Y91.427 E45.73771
G1 X114.169 Y91.48 E45.74685
G1 X115.04 Y91.917 E45.8521
G1 X115.018 Y92.122 E45.87436
G1 X114.631 Y92.226 E45.91764
G1 X114.594 Y92.24 E45.92191
G1 X114.234 Y92.418 E45.96529
G1 X114.185 Y92.452 E45.97173
G1 X113.609 Y92.998 E46.05744
G1 X113.564 Y93.063 E46.06598
G1 X113.245 Y93.792 E46.15192
G1 X113.228 Y93.87 E46.16054
G1 X113.22 Y94.665 E46.24641
G1 X113.228 Y94.725 E46.25294
G1 X113.294 Y94.944 E46.27765
G1 X113.07 Y95.057 E46.30474
G1 X112.955 Y94.904 E46.32541
G1 X112.948 Y94.895 E46.32665
G1 X112.348 Y94.183 E46.4272
G1 X112.34 Y94.174 E46.4285
G1 X111.714 Y93.513 E46.52683
G1 X111.706 Y93.505 E46.52805
G1 X111.059 Y92.899 E46.62379
G1 X111.05 Y92.891 E46.62509
G1 X110.339 Y92.3 E46.72494
G1 X110.33 Y92.294 E46.72611
G1 X110.087 Y92.113 E46.75883
G1 X110.084 Y85.223 E47.50295
G0 F9000 X110.484 Y85.973
G1 F1800 X110.876 Y86.266 E47.55581
G1 X111.42 Y87.085 E47.66199
G1 X111.542 Y87.219 E47.68157
G1 X112.163 Y87.722 E47.76787
G1 X112.317 Y87.813 E47.78719
G1 X112.685 Y87.961 E47.83003
G1 X112.86 Y88.002 E47.84944
G1 X113.396 Y88.046 E47.90753
G1 X113.3 Y88.166 E47.92412
G1 X113.203 Y88.341 E47.94573
G1 X112.953 Y89.045 E48.02642
G1 X112.918 Y89.246 E48.04845
G1 X112.918 Y89.989 E48.12869
G1 X112.953 Y90.19 E48.15073
G1 X113.204 Y90.895 E48.23155
G1 X113.302 Y91.071 E48.25331
G1 X113.792 Y91.678 E48.33756
G1 X113.99 Y91.837 E48.36498
G1 X114.246 Y91.966 E48.39594
G1 X114.057 Y92.059 E48.41869
G1 X113.91 Y92.162 E48.43808
G1 X113.334 Y92.708 E48.52379
G1 X113.197 Y92.902 E48.54944
G1 X112.878 Y93.631 E48.63538
G1 X112.828 Y93.866 E48.66133
G1 X112.825 Y94.128 E48.68963
G1 X112.654 Y93.925 E48.71829
G1 X112.631 Y93.899 E48.72204
G1 X112.005 Y93.238 E48.82036
G1 X111.979 Y93.213 E48.82426
G1 X111.332 Y92.607 E48.92
G1 X111.306 Y92.584 E48.92375
G1 X110.595 Y91.993 E49.0236
G1 X110.569 Y91.973 E49.02714
G1 X110.487 Y91.912 E49.03818
G1 X110.484 Y85.973 E49.67959
G10
G0 F9000 X110.885 Y87.002
G11
G1 F1800 X111.087 Y87.306 E49.71901
G1 X111.291 Y87.53 E49.75173
G1 X111.912 Y88.033 E49.83804
G1 X112.168 Y88.184 E49.87014
G1 X112.536 Y88.332 E49.91298
G1 X112.763 Y88.386 E49.93818
G1 X112.576 Y88.911 E49.99837
G1 X112.518 Y89.246 E50.03509
G1 X112.518 Y89.989 E50.11533
G1 X112.576 Y90.324 E50.15205
G1 X112.827 Y91.029 E50.23287
G1 X112.991 Y91.322 E50.26913
G1 X113.481 Y91.929 E50.35338
G1 X113.528 Y91.973 E50.36034
G1 X113.059 Y92.417 E50.43009
G1 X112.831 Y92.742 E50.47296
G1 X112.595 Y93.28 E50.53641
G1 X112.295 Y92.963 E50.58355
G1 X112.253 Y92.921 E50.58996
G1 X111.606 Y92.315 E50.6857
G1 X111.561 Y92.276 E50.69213
G1 X110.887 Y91.716 E50.78677
G1 X110.885 Y87.002 E51.29588
G10
G0 F9000 X115.363 Y99.805
G0 X116.28 Y103.251
G11
G1 F1800 X116.528 Y103.196 E51.32332
G1 X116.564 Y103.286 E51.33379
G1 X116.587 Y103.326 E51.33877
G1 X116.814 Y103.648 E51.38132
G1 X116.855 Y103.692 E51.38782
G1 X117.486 Y104.176 E51.4737
G1 X117.558 Y104.211 E51.48235
G1 X118.327 Y104.411 E51.56816
G1 X118.395 Y104.416 E51.57553
G1 X119.01 Y104.361 E51.64221
G1 X119.756 Y104.448 E51.72333
G1 X119.779 Y104.449 E51.72581
G1 X129.642 Y104.451 E52.79102
G1 X129.676 Y104.448 E52.7947
G1 X130.343 Y104.334 E52.86778
G1 X130.531 Y104.361 E52.8883
G1 X131.286 Y104.654 E52.97576
G1 X131.787 Y105.217 E53.05715
G1 X131.973 Y105.667 E53.10974
G1 X132.021 Y105.954 E53.14117
G1 X132.021 Y107.645 E53.3238
G1 X131.873 Y108.218 E53.38771
G1 X131.668 Y108.931 E53.46783
G1 X131.661 Y109.008 E53.47618
G1 X131.75 Y109.799 E53.56215
G1 X131.775 Y109.875 E53.57079
G1 X132.166 Y110.567 E53.65663
G1 X132.218 Y110.627 E53.66521
G1 X132.846 Y111.113 E53.75097
G1 X132.899 Y111.143 E53.75755
G1 X133.123 Y111.225 E53.78331
G1 X133.078 Y111.472 E53.81042
G1 X130.086 Y111.471 E54.13356
G1 X130.085 Y106.858 E54.63176
G1 X130.082 Y106.826 E54.63524
G1 X129.952 Y106.021 E54.7233
G1 X129.898 Y105.913 E54.73634
G1 X129.361 Y105.363 E54.81936
G1 X129.218 Y105.303 E54.83611
G1 X119.737 Y105.303 E55.86006
G1 X119.616 Y105.344 E55.87385
G1 X119.088 Y105.746 E55.94553
G1 X119.018 Y105.845 E55.95862
G1 X118.806 Y106.521 E56.03513
G1 X118.797 Y106.581 E56.04169
G1 X118.792 Y109.563 E56.36374
G1 X118.794 Y109.569 E56.36443
G1 X118.796 Y111.47 E56.56973
G1 X114.756 Y111.472 E57.00605
G1 X115.157 Y110.574 E57.11227
G1 X115.161 Y110.563 E57.11353
G1 X115.48 Y109.722 E57.21068
G1 X115.484 Y109.71 E57.21204
G1 X115.752 Y108.849 E57.30943
G1 X115.755 Y108.838 E57.31066
G1 X115.98 Y107.934 E57.41127
G1 X115.983 Y107.923 E57.4125
G1 X116.15 Y107.029 E57.51073
G1 X116.151 Y107.017 E57.51203
G1 X116.263 Y106.128 E57.6088
G1 X116.265 Y106.116 E57.61011
G1 X116.325 Y105.206 E57.7086
G1 X116.325 Y105.195 E57.70979
G1 X116.332 Y104.289 E57.80764
G1 X116.332 Y104.277 E57.80894
G1 X116.28 Y103.251 E57.91989
G0 F9000 X116.723 Y104.094
G1 F1800 X117.243 Y104.493 E57.99068
G1 X117.457 Y104.598 E58.01642
G1 X118.226 Y104.798 E58.10224
G1 X118.43 Y104.815 E58.12434
G1 X119.009 Y104.763 E58.18713
G1 X119.71 Y104.845 E58.26335
G1 X119.779 Y104.849 E58.27082
G1 X129.642 Y104.851 E59.33602
G1 X129.743 Y104.842 E59.34697
G1 X130.347 Y104.739 E59.41315
G1 X130.429 Y104.75 E59.42208
G1 X131.052 Y104.992 E59.49426
G1 X131.442 Y105.432 E59.55776
G1 X131.585 Y105.778 E59.5982
G1 X131.621 Y105.99 E59.62142
G1 X131.621 Y107.596 E59.79487
G1 X131.49 Y108.102 E59.85132
G1 X131.283 Y108.82 E59.93202
G1 X131.264 Y109.053 E59.95727
G1 X131.353 Y109.844 E60.04323
G1 X131.427 Y110.072 E60.06912
G1 X131.818 Y110.764 E60.15496
G1 X131.973 Y110.944 E60.18062
G1 X132.138 Y111.072 E60.20317
G1 X130.486 Y111.071 E60.38159
G1 X130.485 Y106.858 E60.83659
G1 X130.477 Y106.762 E60.847
G1 X130.347 Y105.957 E60.93506
