; generated by PrusaSlicer 2.7.4+win64 on 2024-04-27 at 15:48:05 UTC


;
;
; 

; external perimeters extrusion width = 0.45mm
; perimeters extrusion width = 0.45mm
; infill extrusion width = 0.45mm
; solid infill extrusion width = 0.45mm
; top infill extrusion width = 0.40mm
; support material extrusion width = 0.35mm
; first layer extrusion width = 0.42mm

M73 P0 R160
M73 Q0 S161
M201 X1000 Y1000 Z200 E5000 ; sets maximum accelerations, mm/sec^2
M203 X200 Y200 Z12 E120 ; sets maximum feedrates, mm / sec
M204 S1250 T1250 ; sets acceleration (S) and retract acceleration (R), mm/sec^2
M205 X8.00 Y8.00 Z0.40 E4.50 ; sets the jerk limits, mm/sec
M205 S0 T0 ; sets the minimum extruding and travel feed rate, mm/sec

; printing object new_cookie_jar_lidt (v2~recovered).stl id:0 copy 0
; stop printing object new_cookie_jar_lidt (v2~recovered).stl id:0 copy 0

;TYPE:Custom
M862.3 P "MK3" ; printer model check
M862.1 P0.4 ; nozzle diameter check
M115 U3.13.3 ; tell printer latest fw version
G90 ; use absolute coordinates
M83 ; extruder relative mode
M104 S255 ; set extruder temp
M140 S100 ; set bed temp
M190 S100 ; wait for bed temp
M109 S255 ; wait for extruder temp
G28 W ; home all without mesh bed level
G80 X59.2281 Y30.0899 W131.544 H150.63 ; mesh bed levelling

G1 Z0.2 F720
G1 Y-3 F1000 ; go outside print area
G92 E0
G1 X60 E9 F1000 ; intro line
G1 X100 E12.5 F1000 ; intro line

G92 E0
M221 S95

; Don't change E values below. Excessive value can damage the printer.

M907 E538 ; set extruder motor current
G21 ; set units to millimeters
G90 ; use absolute coordinates
M83 ; use relative distances for extrusion

M900 K0.04 ; Filament gcode LA 1.5
M900 K20 ; Filament gcode LA 1.0




M107
;LAYER_CHANGE
;Z:0.2
;HEIGHT:0.2
G1 E-.8 F2100
G1 Z.6 F720
G1 X84.019 Y59.36 F10800
G1 Z.2 F720
G1 E.8 F2100
M204 S800
;TYPE:Skirt/Brim
;WIDTH:0.42
G1 F1200
G1 X103.777 Y31.394 E1.07362
G1 X104.148 Y30.975 E.01755
G1 X105.829 Y30.278 E.05706
G1 X144.171 Y30.278 E1.20219
G1 X145.852 Y30.975 E.05706
G1 X146.223 Y31.394 E.01755
G1 X179.797 Y78.906 E1.82411
G1 X182.082 Y82.649 E.1375
G1 X183.978 Y86.255 E.12774
G1 X185.613 Y89.892 E.12503
M73 Q0 S160
G1 X187.128 Y93.928 E.13517
G1 X188.351 Y97.971 E.13244
G1 X189.251 Y101.779 E.12269
G1 X189.944 Y105.794 E.12775
G1 X190.399 Y109.994 E.13246
G1 X190.583 Y114.376 E.13752
G1 X190.501 Y118.287 E.12265
G1 X190.25 Y121.355 E.09652
G1 X190.13 Y122.657 E.041
G1 X189.556 Y126.528 E.1227
G1 X188.655 Y130.743 E.13514
G1 X187.578 Y134.583 E.12505
G1 X186.237 Y138.43 E.12774
G1 X184.531 Y142.47 E.1375
G1 X182.748 Y146.038 E.12506
G1 X180.706 Y149.562 E.1277
G1 X178.224 Y153.269 E.13988
G1 X175.844 Y156.375 E.12269
G1 X173.173 Y159.451 E.12773
G1 X170.036 Y162.623 E.13988
G1 X166.99 Y165.328 E.12773
G1 X163.85 Y167.787 E.12505
G1 X160.431 Y170.138 E.1301
G1 X156.936 Y172.23 E.12771
G1 X152.968 Y174.269 E.13988
G1 X149.231 Y175.892 E.12774
G1 X145.482 Y177.252 E.12504
G1 X141.272 Y178.48 E.1375
G1 X137.296 Y179.369 E.12774
G1 X133.358 Y179.997 E.12503
G1 X128.992 Y180.409 E.1375
G1 X124.919 Y180.532 E.12776
G1 X120.933 Y180.406 E.12504
G1 X116.568 Y179.986 E.13749
G1 X112.546 Y179.338 E.12773
G1 X108.655 Y178.462 E.12505
G1 X104.447 Y177.227 E.1375
G1 X100.619 Y175.832 E.12775
G1 X96.964 Y174.237 E.12504
G1 X93.064 Y172.23 E.13752
G1 X89.569 Y170.138 E.12771
G1 X86.15 Y167.787 E.1301
G1 X83.01 Y165.328 E.12505
G1 X79.964 Y162.623 E.12773
G1 X76.877 Y159.507 E.13753
G1 X74.258 Y156.5 E.12503
G1 X71.776 Y153.269 E.12775
G1 X69.294 Y149.562 E.13988
G1 X67.328 Y146.179 E.12268
G1 X65.501 Y142.538 E.12773
G1 X63.763 Y138.43 E.13986
G1 X62.422 Y134.583 E.12774
G1 X61.306 Y130.587 E.13009
G1 X60.473 Y126.687 E.12504
G1 X59.87 Y122.657 E.12776
G1 X59.496 Y118.212 E.13986
G1 X59.418 Y114.139 E.12773
G1 X59.589 Y110.155 E.12503
G1 X60.056 Y105.794 E.13752
G1 X60.716 Y101.937 E.12269
G1 X61.649 Y97.971 E.12775
G1 X62.924 Y93.775 E.1375
G1 X64.417 Y89.823 E.13246
M73 P0 R159
G1 X66.022 Y86.255 E.12267
G1 X67.918 Y82.649 E.12774
G1 X70.114 Y79.04 E.13246
G1 X83.984 Y59.409 E.75365
M204 S1000
;WIPE_START
G1 F8640
G1 X84.019 Y59.36 E-.0139
G1 X85.983 Y56.579 E-.7861
;WIPE_END
G1 Z.6 F720
G1 X83.984 Y75.332 F10800
G1 Z.2 F720
G1 E.8 F2100
M204 S800
G1 F1200
G1 X106.387 Y75.332 E.70243
G1 X106.387 Y54.563 E.6512
G1 X107.117 Y52.432 E.07063
G1 X107.72 Y51.695 E.02986
G1 X108.449 Y51.06 E.03031
G1 X109.462 Y50.532 E.03582
G1 X110.781 Y50.214 E.04254
G1 X139.189 Y50.218 E.89071
G1 X140.21 Y50.412 E.03259
G1 X141.188 Y50.827 E.03331
G1 X142.312 Y51.722 E.04505
G1 X143.152 Y52.944 E.04649
G1 X143.585 Y54.4 E.04763
G1 X143.613 Y75.336 E.65643
G1 X172.401 Y75.402 E.90263
G1 X173.194 Y75.623 E.02581
G1 X173.97 Y75.983 E.02682
G1 X175.089 Y76.898 E.04532
G1 X177.622 Y80.446 E.13669
G1 X179.687 Y83.823 E.12411
G1 X181.553 Y87.358 E.12533
G1 X183.182 Y90.985 E.12467
G1 X184.577 Y94.701 E.12445
G1 X185.742 Y98.524 E.12531
G1 X186.659 Y102.397 E.12479
G1 X187.327 Y106.306 E.12434
G1 X187.75 Y110.28 E.12531
G1 X187.919 Y114.253 E.12468
G1 X187.837 Y118.221 E.12444
G1 X187.503 Y122.204 E.12532
G1 X186.915 Y126.161 E.12543
G1 X186.091 Y130.019 E.12369
G1 X185.012 Y133.863 E.12518
G1 X183.698 Y137.612 E.12456
G1 X182.168 Y141.234 E.12328
G1 X180.405 Y144.771 E.12391
G1 X178.369 Y148.277 E.12712
G1 X176.12 Y151.634 E.12669
G1 X173.734 Y154.748 E.123
G1 X171.154 Y157.713 E.12323
G1 X168.261 Y160.638 E.12899
G1 X165.32 Y163.252 E.12337
G1 X162.216 Y165.682 E.1236
G1 X158.87 Y167.975 E.12718
G1 X155.505 Y169.979 E.1228
G1 X152.018 Y171.772 E.12294
G1 X148.255 Y173.413 E.12872
G1 X144.561 Y174.75 E.12318
G1 X140.775 Y175.858 E.12369
G1 X136.853 Y176.742 E.12606
G1 X132.948 Y177.364 E.12398
G1 X129.01 Y177.74 E.12403
G1 X125.045 Y177.868 E.12438
G1 X121.03 Y177.743 E.12595
G1 X117.039 Y177.362 E.1257
G1 X113.1 Y176.733 E.12507
G1 X109.252 Y175.865 E.12368
G1 X105.416 Y174.743 E.12531
G1 X101.677 Y173.386 E.12472
G1 X98.04 Y171.8 E.12441
G1 X94.485 Y169.973 E.12532
G1 X91.076 Y167.94 E.12445
G1 X87.777 Y165.677 E.12544
G1 X84.649 Y163.227 E.12458
G1 X81.697 Y160.597 E.12396
G1 X78.848 Y157.716 E.12704
G1 X76.258 Y154.738 E.12375
G1 X73.855 Y151.598 E.12397
G1 X71.593 Y148.216 E.12757
G1 X69.621 Y144.818 E.12318
G1 X67.858 Y141.289 E.12369
G1 X66.3 Y137.609 E.1253
G1 X65 Y133.901 E.1232
G1 X63.928 Y130.094 E.12401
G1 X63.094 Y126.214 E.12443
G1 X62.487 Y122.115 E.12992
G1 X62.162 Y118.208 E.12292
G1 X62.081 Y114.281 E.12315
G1 X62.25 Y110.28 E.12556
G1 X62.673 Y106.306 E.12531
G1 X63.348 Y102.362 E.12546
G1 X64.258 Y98.524 E.12367
G1 X65.435 Y94.666 E.12647
G1 X66.836 Y90.939 E.12484
G1 X68.465 Y87.321 E.12441
G1 X70.317 Y83.816 E.12429
G1 X72.394 Y80.421 E.12479
G1 X74.746 Y77.084 E.12801
G1 X75.482 Y76.362 E.03233
G1 X76.35 Y75.811 E.03224
G1 X78.138 Y75.332 E.05804
G1 X83.924 Y75.332 E.18142
M204 S1000
G1 X83.924 Y75.332 F10800
G1 X83.924 Y75.709
M204 S800
G1 F1200
G1 X106.764 Y75.709 E.71613
G1 X106.764 Y54.594 E.66205
G1 X107.43 Y52.644 E.06461
G1 X107.98 Y51.969 E.0273
G1 X108.68 Y51.359 E.02911
G1 X109.574 Y50.893 E.03161
G1 X110.804 Y50.591 E.03971
G1 X139.171 Y50.595 E.88943
G1 X140.117 Y50.778 E.03021
G1 X141.015 Y51.163 E.03063
G1 X142.053 Y51.998 E.04177
G1 X142.823 Y53.131 E.04295
G1 X143.216 Y54.479 E.04403
G1 X143.236 Y75.712 E.66575
G1 X172.325 Y75.773 E.91207
G1 X173.078 Y75.982 E.0245
G1 X173.788 Y76.314 E.02458
G1 X174.829 Y77.173 E.04232
G1 X177.304 Y80.649 E.13379
G1 X179.356 Y84.004 E.12331
G1 X181.216 Y87.528 E.12494
G1 X182.832 Y91.123 E.12358
G1 X184.218 Y94.816 E.12368
G1 X185.38 Y98.628 E.12495
G1 X186.288 Y102.466 E.12366
G1 X186.953 Y106.351 E.12358
G1 X187.374 Y110.314 E.12496
G1 X187.542 Y114.251 E.12355
G1 X187.461 Y118.195 E.12369
G1 X187.128 Y122.166 E.12494
G1 X186.545 Y126.088 E.12432
G1 X185.726 Y129.922 E.12292
G1 X184.65 Y133.756 E.12486
G1 X183.349 Y137.47 E.12339
G1 X181.823 Y141.081 E.12292
G1 X180.07 Y144.598 E.12321
G1 X178.053 Y148.072 E.12595
G1 X175.817 Y151.409 E.12595
G1 X173.446 Y154.505 E.12227
G1 X170.882 Y157.452 E.12248
G1 X168.006 Y160.36 E.12824
G1 X165.083 Y162.959 E.12264
G1 X161.998 Y165.374 E.12284
G1 X158.661 Y167.66 E.12683
G1 X155.327 Y169.647 E.12169
G1 X151.862 Y171.429 E.12217
G1 X148.11 Y173.065 E.12834
G1 X144.438 Y174.394 E.12244
G1 X140.675 Y175.495 E.12293
G1 X136.776 Y176.372 E.1253
G1 X132.895 Y176.991 E.12322
G1 X128.981 Y177.364 E.12328
G1 X125.051 Y177.491 E.12329
G1 X121.059 Y177.367 E.12523
G1 X117.092 Y176.989 E.12495
G1 X113.177 Y176.363 E.12431
G1 X109.352 Y175.502 E.12293
G1 X105.528 Y174.383 E.12493
G1 X101.823 Y173.038 E.12359
G1 X98.207 Y171.462 E.12368
G1 X94.662 Y169.641 E.12496
G1 X91.285 Y167.626 E.1233
G1 X88.005 Y165.376 E.12471
G1 X84.887 Y162.934 E.12418
G1 X81.952 Y160.32 E.12323
G1 X79.129 Y157.464 E.12591
G1 X76.554 Y154.504 E.12301
G1 X74.165 Y151.383 E.12323
G1 X71.916 Y148.021 E.12682
G1 X69.955 Y144.644 E.12244
G1 X68.202 Y141.137 E.12293
G1 X66.65 Y137.467 E.12494
G1 X65.358 Y133.782 E.12244
G1 X64.292 Y129.997 E.12329
G1 X63.464 Y126.141 E.12366
G1 X62.862 Y122.077 E.12881
G1 X62.538 Y118.183 E.12252
G1 X62.458 Y114.279 E.12243
G1 X62.626 Y110.314 E.12443
G1 X63.047 Y106.352 E.12493
G1 X63.716 Y102.443 E.12435
G1 X64.62 Y98.628 E.12293
G1 X65.79 Y94.793 E.12572
G1 X67.183 Y91.089 E.12408
G1 X68.801 Y87.492 E.12367
G1 X70.642 Y84.007 E.12358
G1 X72.706 Y80.633 E.12401
G1 X75.023 Y77.34 E.12625
G1 X75.702 Y76.669 E.02993
G1 X76.528 Y76.145 E.03067
G1 X78.163 Y75.709 E.05306
G1 X83.864 Y75.709 E.17875
M204 S1000
G1 X83.864 Y75.709 F10800
G1 X83.864 Y76.086
M204 S800
G1 F1200
G1 X107.141 Y76.086 E.72983
G1 X107.141 Y54.625 E.67289
G1 X107.745 Y52.855 E.05864
M73 Q0 S159
G1 X108.241 Y52.242 E.02472
G1 X108.911 Y51.658 E.02787
G1 X109.688 Y51.253 E.02747
G1 X110.828 Y50.968 E.03684
G1 X139.152 Y50.972 E.88808
G1 X140.024 Y51.144 E.02787
G1 X140.84 Y51.498 E.02789
G1 X141.793 Y52.272 E.03849
G1 X142.493 Y53.315 E.03938
G1 X142.846 Y54.556 E.04045
G1 X142.859 Y76.089 E.67515
G1 X172.249 Y76.143 E.9215
G1 X172.962 Y76.341 E.0232
G1 X173.605 Y76.644 E.02229
G1 X174.569 Y77.447 E.03934
G1 X176.986 Y80.851 E.1309
G1 X179.026 Y84.185 E.12255
G1 X180.88 Y87.699 E.12457
G1 X182.481 Y91.261 E.12245
G1 X183.859 Y94.932 E.12294
G1 X185.017 Y98.732 E.12456
G1 X185.918 Y102.536 E.12257
G1 X186.578 Y106.397 E.12281
G1 X186.998 Y110.348 E.12458
G1 X187.165 Y114.25 E.12246
G1 X187.085 Y118.17 E.12293
G1 X186.752 Y122.128 E.12454
G1 X186.175 Y126.015 E.12321
G1 X185.361 Y129.826 E.12219
G1 X184.289 Y133.648 E.12446
G1 X182.999 Y137.329 E.1223
G1 X181.478 Y140.929 E.12254
G1 X179.735 Y144.424 E.12245
G1 X177.736 Y147.867 E.12483
G1 X175.514 Y151.185 E.12521
G1 X173.157 Y154.262 E.12153
G1 X170.61 Y157.191 E.1217
G1 X167.75 Y160.082 E.12751
G1 X164.846 Y162.666 E.12188
G1 X161.78 Y165.067 E.1221
G1 X158.463 Y167.339 E.12606
G1 X155.149 Y169.314 E.12096
G1 X151.706 Y171.086 E.12141
G1 X147.976 Y172.712 E.12758
G1 X144.327 Y174.034 E.12169
G1 X140.587 Y175.128 E.12218
G1 X136.699 Y176.003 E.12495
G1 X132.841 Y176.617 E.12249
G1 X128.951 Y176.988 E.12252
G1 X125.044 Y177.114 E.12256
G1 X121.089 Y176.991 E.12407
G1 X117.134 Y176.614 E.12457
G1 X113.254 Y175.994 E.1232
G1 X109.452 Y175.138 E.12219
G1 X105.639 Y174.022 E.12457
G1 X101.968 Y172.69 E.12244
M73 P0 R158
G1 X98.374 Y171.123 E.12293
G1 X94.84 Y169.308 E.12457
G1 X91.493 Y167.312 E.12219
G1 X88.232 Y165.076 E.12397
G1 X85.124 Y162.641 E.1238
G1 X82.207 Y160.042 E.1225
G1 X79.409 Y157.212 E.12478
G1 X76.849 Y154.27 E.12228
G1 X74.475 Y151.169 E.12245
G1 X72.239 Y147.827 E.12608
G1 X70.29 Y144.47 E.12171
G1 X68.547 Y140.985 E.12217
G1 X67 Y137.326 E.12456
G1 X65.716 Y133.662 E.12173
G1 X64.657 Y129.901 E.12251
G1 X63.834 Y126.068 E.12292
G1 X63.238 Y122.04 E.12767
G1 X62.914 Y118.157 E.12217
G1 X62.835 Y114.277 E.12168
G1 X63.002 Y110.348 E.1233
G1 X63.422 Y106.397 E.12458
G1 X64.085 Y102.525 E.12317
G1 X64.983 Y98.732 E.12221
G1 X66.145 Y94.92 E.12495
G1 X67.529 Y91.238 E.12333
G1 X69.138 Y87.663 E.12292
G1 X70.967 Y84.199 E.12282
G1 X73.018 Y80.845 E.12327
G1 X75.3 Y77.596 E.12449
G1 X75.952 Y76.952 E.02873
G1 X76.704 Y76.48 E.02784
G1 X78.187 Y76.086 E.04811
G1 X83.804 Y76.086 E.17612
M204 S1000
G1 X83.804 Y76.463 F10800
M204 S800
G1 F1200
G1 X107.518 Y76.463 E.74354
G1 X107.518 Y54.656 E.68374
G1 X108.059 Y53.065 E.05269
G1 X108.501 Y52.515 E.02212
G1 X109.142 Y51.957 E.02665
G1 X109.802 Y51.613 E.02334
G1 X110.852 Y51.345 E.03398
G1 X139.133 Y51.349 E.88673
G1 X139.929 Y51.509 E.02546
M73 P1 R158
M73 Q1 S159
G1 X140.664 Y51.832 E.02517
G1 X141.531 Y52.545 E.0352
G1 X142.161 Y53.498 E.03582
G1 X142.476 Y54.632 E.0369
G1 X142.482 Y76.465 E.68456
G1 X172.174 Y76.513 E.93097
G1 X172.816 Y76.689 E.02087
G1 X173.422 Y76.975 E.02101
G1 X174.308 Y77.719 E.03628
G1 X176.667 Y81.053 E.12806
G1 X178.695 Y84.367 E.12182
G1 X180.544 Y87.87 E.1242
G1 X182.13 Y91.4 E.12134
G1 X183.5 Y95.048 E.12218
G1 X184.655 Y98.836 E.12417
G1 X185.547 Y102.605 E.12144
G1 X186.204 Y106.443 E.12209
G1 X186.623 Y110.382 E.1242
G1 X186.788 Y114.248 E.12133
G1 X186.709 Y118.144 E.12218
G1 X186.377 Y122.091 E.12419
G1 X185.805 Y125.942 E.12207
G1 X184.997 Y129.73 E.12144
G1 X183.927 Y133.54 E.12408
G1 X182.65 Y137.188 E.12119
G1 X181.133 Y140.777 E.12217
G1 X179.4 Y144.25 E.1217
G1 X177.419 Y147.662 E.1237
G1 X175.211 Y150.96 E.12444
G1 X172.869 Y154.019 E.1208
G1 X170.329 Y156.939 E.12135
G1 X167.495 Y159.804 E.12635
G1 X164.609 Y162.373 E.12115
G1 X161.562 Y164.759 E.12134
G1 X158.265 Y167.019 E.12533
G1 X154.961 Y168.987 E.12058
G1 X151.539 Y170.748 E.12067
G1 X147.842 Y172.36 E.12646
G1 X144.204 Y173.677 E.12131
G1 X140.498 Y174.762 E.12108
G1 X136.622 Y175.634 E.12457
G1 X132.788 Y176.244 E.12172
G1 X128.921 Y176.612 E.12179
G1 X125.038 Y176.737 E.12181
G1 X121.119 Y176.615 E.12294
G1 X117.176 Y176.239 E.12419
G1 X113.331 Y175.625 E.12208
G1 X109.552 Y174.775 E.12145
G1 X105.751 Y173.662 E.12418
G1 X102.102 Y172.338 E.12171
G1 X98.541 Y170.785 E.12181
G1 X95.018 Y168.975 E.12419
G1 X91.691 Y166.991 E.12146
G1 X88.46 Y164.775 E.12284
G1 X85.361 Y162.347 E.12344
G1 X82.463 Y159.765 E.1217
G1 X79.69 Y156.959 E.12369
G1 X77.145 Y154.036 E.12152
G1 X74.785 Y150.954 E.12171
G1 X72.562 Y147.632 E.12533
G1 X70.624 Y144.297 E.12094
G1 X68.892 Y140.832 E.12146
G1 X67.349 Y137.184 E.12419
G1 X66.074 Y133.543 E.12096
G1 X65.022 Y129.804 E.12179
G1 X64.204 Y125.994 E.12218
G1 X63.613 Y122.003 E.1265
G1 X63.291 Y118.143 E.12145
G1 X63.212 Y114.275 E.1213
G1 X63.377 Y110.382 E.12217
G1 X63.796 Y106.443 E.1242
G1 X64.453 Y102.606 E.12206
G1 X65.345 Y98.837 E.12144
G1 X66.5 Y95.047 E.12423
G1 X67.875 Y91.387 E.12259
G1 X69.479 Y87.823 E.12254
G1 X71.297 Y84.38 E.12208
G1 X73.33 Y81.057 E.12214
G1 X75.578 Y77.851 E.12277
G1 X76.171 Y77.26 E.02625
G1 X76.88 Y76.814 E.02626
G1 X78.211 Y76.463 E.04316
G1 X83.744 Y76.463 E.17348
M204 S1000
G1 X83.744 Y76.84 F10800
M204 S800
G1 F1200
G1 X107.895 Y76.84 E.75724
G1 X107.895 Y54.687 E.69459
G1 X108.375 Y53.274 E.04679
G1 X108.762 Y52.788 E.01948
G1 X109.373 Y52.256 E.0254
G1 X109.918 Y51.972 E.01927
G1 X110.877 Y51.722 E.03107
G1 X139.115 Y51.726 E.88538
G1 X139.796 Y51.862 E.02177
G1 X140.487 Y52.167 E.02368
G1 X141.267 Y52.816 E.03181
G1 X141.829 Y53.677 E.03224
G1 X142.105 Y54.705 E.03337
G1 X142.105 Y76.842 E.69409
G1 X172.098 Y76.883 E.94041
G1 X172.7 Y77.048 E.01957
G1 X173.236 Y77.304 E.01862
G1 X174.045 Y77.991 E.03328
G1 X176.349 Y81.255 E.12527
G1 X178.364 Y84.548 E.12105
G1 X180.208 Y88.04 E.12382
G1 X181.779 Y91.538 E.12023
G1 X183.141 Y95.163 E.12142
G1 X184.292 Y98.941 E.12383
G1 X185.176 Y102.675 E.12031
G1 X185.83 Y106.489 E.12133
G1 X186.247 Y110.416 E.12382
G1 X186.411 Y114.246 E.1202
G1 X186.332 Y118.119 E.12146
G1 X186.002 Y122.053 E.12378
G1 X185.435 Y125.869 E.12096
G1 X184.632 Y129.634 E.1207
G1 X183.566 Y133.433 E.12372
G1 X182.296 Y137.058 E.12043
G1 X180.788 Y140.625 E.12142
G1 X179.066 Y144.077 E.12095
G1 X177.103 Y147.457 E.12255
G1 X174.908 Y150.736 E.12372
G1 X172.573 Y153.785 E.12041
G1 X170.048 Y156.687 E.12061
G1 X167.24 Y159.527 E.12522
G1 X164.371 Y162.08 E.12041
