; generated by PrusaSlicer 2.7.4+win64 on 2024-04-26 at 13:31:51 UTC


;
;
; 

; external perimeters extrusion width = 0.45mm
; perimeters extrusion width = 0.45mm
; infill extrusion width = 0.45mm
; solid infill extrusion width = 0.45mm
; top infill extrusion width = 0.40mm
; support material extrusion width = 0.35mm
; first layer extrusion width = 0.42mm

M73 P0 R172
M73 Q0 S174
M201 X1000 Y1000 Z200 E5000 ; sets maximum accelerations, mm/sec^2
M203 X200 Y200 Z12 E120 ; sets maximum feedrates, mm / sec
M204 S1250 T1250 ; sets acceleration (S) and retract acceleration (R), mm/sec^2
M205 X8.00 Y8.00 Z0.40 E4.50 ; sets the jerk limits, mm/sec
M205 S0 T0 ; sets the minimum extruding and travel feed rate, mm/sec

; printing object new_cookie_jar_lidt v2.stl id:0 copy 0
; stop printing object new_cookie_jar_lidt v2.stl id:0 copy 0

;TYPE:Custom
M862.3 P "MK3" ; printer model check
M862.1 P0.4 ; nozzle diameter check
M115 U3.13.3 ; tell printer latest fw version
G90 ; use absolute coordinates
M83 ; extruder relative mode
M104 S255 ; set extruder temp
M140 S100 ; set bed temp
M190 S100 ; wait for bed temp
M109 S255 ; wait for extruder temp
G28 W ; home all without mesh bed level
G80 X64.129 Y30.2786 W121.742 H145.541 ; mesh bed levelling

G1 Z0.2 F720
G1 Y-3 F1000 ; go outside print area
G92 E0
G1 X60 E9 F1000 ; intro line
G1 X100 E12.5 F1000 ; intro line

G92 E0
M221 S95

; Don't change E values below. Excessive value can damage the printer.

M907 E538 ; set extruder motor current
G21 ; set units to millimeters
G90 ; use absolute coordinates
M83 ; use relative distances for extrusion

M900 K0.04 ; Filament gcode LA 1.5
M900 K20 ; Filament gcode LA 1.0




M107
;LAYER_CHANGE
;Z:0.2
;HEIGHT:0.2
G1 E-.8 F2100
G1 Z.6 F720
G1 X90.857 Y35.325 F10800
G1 Z.2 F720
G1 E.8 F2100
M204 S800
;TYPE:Skirt/Brim
;WIDTH:0.42
G1 F1200
G1 X92.156 Y31.983 E.11242
G1 X92.995 Y30.907 E.04278
G1 X94.372 Y30.467 E.04533
G1 X155.628 Y30.467 E1.92064
G1 X156.935 Y30.859 E.04278
G1 X157.844 Y31.983 E.04532
G1 X181.131 Y91.877 E2.01488
G1 X182.485 Y95.499 E.12124
M73 Q0 S173
G1 X183.561 Y99.028 E.11568
G1 X184.45 Y102.762 E.12035
G1 X185.122 Y106.695 E.1251
G1 X185.523 Y110.513 E.12037
G1 X185.683 Y114.349 E.12038
G1 X185.607 Y118.037 E.11566
G1 X185.29 Y121.863 E.12037
G1 X184.732 Y125.662 E.12039
G1 X183.899 Y129.563 E.12507
G1 X182.856 Y133.258 E.12038
G1 X181.583 Y136.88 E.12038
G1 X180.145 Y140.277 E.11566
G1 X178.433 Y143.714 E.12039
G1 X176.428 Y147.162 E.12506
G1 X174.375 Y150.227 E.11567
G1 X172.045 Y153.279 E.12039
G1 X169.425 Y156.287 E.12507
G1 X166.831 Y158.91 E.11567
G1 X163.967 Y161.467 E.12038
G1 X160.826 Y163.927 E.12509
G1 X157.784 Y166.013 E.11565
G1 X154.489 Y167.984 E.12039
G1 X150.941 Y169.807 E.12507
G1 X147.559 Y171.282 E.11569
G1 X143.952 Y172.595 E.12035
G1 X140.123 Y173.716 E.12509
G1 X136.524 Y174.526 E.11567
G1 X132.734 Y175.136 E.12036
G1 X128.762 Y175.514 E.1251
G1 X124.925 Y175.631 E.12036
G1 X121.238 Y175.514 E.11566
G1 X117.415 Y175.155 E.12039
G1 X113.623 Y174.555 E.12037
G1 X109.731 Y173.678 E.12509
G1 X106.048 Y172.595 E.12037
G1 X102.58 Y171.337 E.11567
G1 X98.923 Y169.743 E.12508
G1 X95.642 Y168.057 E.11566
G1 X92.343 Y166.094 E.12036
G1 X89.052 Y163.838 E.1251
G1 X86.148 Y161.564 E.11565
G1 X83.278 Y159.014 E.12038
G1 X80.473 Y156.177 E.12509
G1 X78.05 Y153.395 E.11567
G1 X75.713 Y150.35 E.12035
G1 X73.493 Y147.035 E.12509
G1 X71.567 Y143.714 E.12037
G1 X69.855 Y140.277 E.12039
G1 X68.363 Y136.74 E.12036
G1 X67.144 Y133.258 E.11567
G1 X66.065 Y129.417 E.12509
G1 X65.268 Y125.662 E.12036
G1 X64.727 Y122.013 E.11566
G1 X64.401 Y118.187 E.1204
G1 X64.317 Y114.349 E.12037
G1 X64.488 Y110.363 E.12509
G1 X64.878 Y106.695 E.11566
G1 X65.52 Y102.91 E.12037
G1 X66.439 Y99.028 E.12508
G1 X67.563 Y95.357 E.12038
G1 X68.869 Y91.877 E.11654
G1 X90.835 Y35.381 E1.90057
M204 S1000
;WIPE_START
G1 F8640
G1 X90.857 Y35.325 E-.01389
G1 X92.09 Y32.152 E-.78611
;WIPE_END
G1 Z.6 F720
; printing object new_cookie_jar_lidt v2.stl id:0 copy 0
G1 X155.628 Y59.495 F10800
G1 Z.2 F720
G1 E.8 F2100
M204 S800
;TYPE:Support material
G1 F1200
G1 X152.48 Y59.495 E.0987
G1 X152.48 Y54.629 E.15257
G1 X152.199 Y54.347 E.01248
G1 X97.801 Y54.347 E1.70561
G1 X97.52 Y54.629 E.01248
G1 X97.52 Y59.495 E.15257
G1 X94.372 Y59.495 E.0987
G1 X94.372 Y32.844 E.83562
G1 X155.628 Y32.844 E1.92064
G1 X155.628 Y59.438 E.83384
M204 S1000
G1 X155.628 Y59.438 F10800
G1 X155.166 Y59.325
M204 S800
G1 F1200
G1 X155.166 Y33.184 E.81963
G1 X154.747 Y33.184 E.01314
G1 X154.747 Y59.155 E.8143
G1 X154.328 Y59.155 E.01314
G1 X154.328 Y33.184 E.8143
G1 X153.909 Y33.184 E.01314
G1 X153.909 Y59.155 E.8143
G1 X153.49 Y59.155 E.01314
G1 X153.49 Y33.184 E.8143
G1 X153.071 Y33.184 E.01314
G1 X153.071 Y59.155 E.8143
G1 X152.819 Y59.155 E.0079
G1 X152.819 Y54.488 E.14633
G1 X152.652 Y54.321 E.00741
G1 X152.652 Y33.184 E.66274
G1 X152.234 Y33.184 E.01311
G1 X152.234 Y54.008 E.65292
G1 X151.815 Y54.008 E.01314
G1 X151.815 Y33.184 E.65292
G1 X151.396 Y33.184 E.01314
G1 X151.396 Y54.008 E.65292
G1 X150.977 Y54.008 E.01314
G1 X150.977 Y33.184 E.65292
G1 X150.558 Y33.184 E.01314
M73 P0 R171
G1 X150.558 Y54.008 E.65292
G1 X150.139 Y54.008 E.01314
G1 X150.139 Y33.184 E.65292
G1 X149.72 Y33.184 E.01314
G1 X149.72 Y54.008 E.65292
G1 X149.301 Y54.008 E.01314
G1 X149.301 Y33.184 E.65292
G1 X148.882 Y33.184 E.01314
G1 X148.882 Y54.008 E.65292
G1 X148.463 Y54.008 E.01314
G1 X148.463 Y33.184 E.65292
G1 X148.044 Y33.184 E.01314
G1 X148.044 Y54.008 E.65292
G1 X147.625 Y54.008 E.01314
G1 X147.625 Y33.184 E.65292
G1 X147.206 Y33.184 E.01314
G1 X147.206 Y54.008 E.65292
G1 X146.787 Y54.008 E.01314
G1 X146.787 Y33.184 E.65292
G1 X146.368 Y33.184 E.01314
G1 X146.368 Y54.008 E.65292
G1 X145.949 Y54.008 E.01314
G1 X145.949 Y33.184 E.65292
G1 X145.53 Y33.184 E.01314
G1 X145.53 Y54.008 E.65292
G1 X145.111 Y54.008 E.01314
G1 X145.111 Y33.184 E.65292
G1 X144.692 Y33.184 E.01314
G1 X144.692 Y54.008 E.65292
G1 X144.273 Y54.008 E.01314
G1 X144.273 Y33.184 E.65292
G1 X143.854 Y33.184 E.01314
G1 X143.854 Y54.008 E.65292
G1 X143.435 Y54.008 E.01314
G1 X143.435 Y33.184 E.65292
G1 X143.016 Y33.184 E.01314
M73 Q0 S172
G1 X143.016 Y54.008 E.65292
G1 X142.597 Y54.008 E.01314
G1 X142.597 Y33.184 E.65292
G1 X142.178 Y33.184 E.01314
G1 X142.178 Y54.008 E.65292
G1 X141.759 Y54.008 E.01314
G1 X141.759 Y33.184 E.65292
G1 X141.34 Y33.184 E.01314
G1 X141.34 Y54.008 E.65292
G1 X140.921 Y54.008 E.01314
G1 X140.921 Y33.184 E.65292
G1 X140.502 Y33.184 E.01314
G1 X140.502 Y54.008 E.65292
G1 X140.083 Y54.008 E.01314
G1 X140.083 Y33.184 E.65292
G1 X139.664 Y33.184 E.01314
G1 X139.664 Y54.008 E.65292
G1 X139.245 Y54.008 E.01314
G1 X139.245 Y33.184 E.65292
G1 X138.826 Y33.184 E.01314
G1 X138.826 Y54.008 E.65292
G1 X138.407 Y54.008 E.01314
G1 X138.407 Y33.184 E.65292
G1 X137.988 Y33.184 E.01314
G1 X137.988 Y54.008 E.65292
G1 X137.569 Y54.008 E.01314
G1 X137.569 Y33.184 E.65292
G1 X137.15 Y33.184 E.01314
G1 X137.15 Y54.008 E.65292
G1 X136.731 Y54.008 E.01314
G1 X136.731 Y33.184 E.65292
G1 X136.312 Y33.184 E.01314
G1 X136.312 Y54.008 E.65292
G1 X135.893 Y54.008 E.01314
G1 X135.893 Y33.184 E.65292
G1 X135.474 Y33.184 E.01314
G1 X135.474 Y54.008 E.65292
G1 X135.055 Y54.008 E.01314
G1 X135.055 Y33.184 E.65292
G1 X134.636 Y33.184 E.01314
G1 X134.636 Y54.008 E.65292
G1 X134.217 Y54.008 E.01314
G1 X134.218 Y33.184 E.65292
G1 X133.799 Y33.184 E.01314
G1 X133.799 Y54.008 E.65292
G1 X133.38 Y54.008 E.01314
G1 X133.38 Y33.184 E.65292
G1 X132.961 Y33.184 E.01314
G1 X132.961 Y54.008 E.65292
G1 X132.542 Y54.008 E.01314
G1 X132.542 Y33.184 E.65292
G1 X132.123 Y33.184 E.01314
G1 X132.123 Y54.008 E.65292
G1 X131.704 Y54.008 E.01314
G1 X131.704 Y33.184 E.65292
G1 X131.285 Y33.184 E.01314
G1 X131.285 Y54.008 E.65292
G1 X130.866 Y54.008 E.01314
G1 X130.866 Y33.184 E.65292
G1 X130.447 Y33.184 E.01314
M73 P1 R171
M73 Q1 S172
G1 X130.447 Y54.008 E.65292
G1 X130.028 Y54.008 E.01314
G1 X130.028 Y33.184 E.65292
G1 X129.609 Y33.184 E.01314
G1 X129.609 Y54.008 E.65292
G1 X129.19 Y54.008 E.01314
G1 X129.19 Y33.184 E.65292
G1 X128.771 Y33.184 E.01314
G1 X128.771 Y54.008 E.65292
G1 X128.352 Y54.008 E.01314
G1 X128.352 Y33.184 E.65292
G1 X127.933 Y33.184 E.01314
G1 X127.933 Y54.008 E.65292
G1 X127.514 Y54.008 E.01314
G1 X127.514 Y33.184 E.65292
G1 X127.095 Y33.184 E.01314
M73 P1 R170
G1 X127.095 Y54.008 E.65292
G1 X126.676 Y54.008 E.01314
G1 X126.676 Y33.184 E.65292
G1 X126.257 Y33.184 E.01314
G1 X126.257 Y54.008 E.65292
G1 X125.838 Y54.008 E.01314
G1 X125.838 Y33.184 E.65292
G1 X125.419 Y33.184 E.01314
G1 X125.419 Y54.008 E.65292
G1 X125 Y54.008 E.01314
G1 X125 Y33.184 E.65292
G1 X124.581 Y33.184 E.01314
G1 X124.581 Y54.008 E.65292
G1 X124.162 Y54.008 E.01314
G1 X124.162 Y33.184 E.65292
G1 X123.743 Y33.184 E.01314
G1 X123.743 Y54.008 E.65292
G1 X123.324 Y54.008 E.01314
G1 X123.324 Y33.184 E.65292
G1 X122.905 Y33.184 E.01314
G1 X122.905 Y54.008 E.65292
G1 X122.486 Y54.008 E.01314
G1 X122.486 Y33.184 E.65292
G1 X122.067 Y33.184 E.01314
G1 X122.067 Y54.008 E.65292
G1 X121.648 Y54.008 E.01314
G1 X121.648 Y33.184 E.65292
G1 X121.229 Y33.184 E.01314
G1 X121.229 Y54.008 E.65292
G1 X120.81 Y54.008 E.01314
G1 X120.81 Y33.184 E.65292
G1 X120.391 Y33.184 E.01314
G1 X120.391 Y54.008 E.65292
G1 X119.972 Y54.008 E.01314
G1 X119.972 Y33.184 E.65292
G1 X119.553 Y33.184 E.01314
M73 Q1 S171
G1 X119.553 Y54.008 E.65292
G1 X119.134 Y54.008 E.01314
G1 X119.134 Y33.184 E.65292
G1 X118.715 Y33.184 E.01314
G1 X118.715 Y54.008 E.65292
G1 X118.296 Y54.008 E.01314
G1 X118.296 Y33.184 E.65292
G1 X117.877 Y33.184 E.01314
G1 X117.877 Y54.008 E.65292
G1 X117.458 Y54.008 E.01314
G1 X117.458 Y33.184 E.65292
G1 X117.039 Y33.184 E.01314
G1 X117.039 Y54.008 E.65292
G1 X116.62 Y54.008 E.01314
G1 X116.62 Y33.184 E.65292
G1 X116.201 Y33.184 E.01314
G1 X116.201 Y54.008 E.65292
G1 X115.783 Y54.008 E.01311
G1 X115.783 Y33.184 E.65292
G1 X115.364 Y33.184 E.01314
G1 X115.364 Y54.008 E.65292
G1 X114.945 Y54.008 E.01314
G1 X114.945 Y33.184 E.65292
G1 X114.526 Y33.184 E.01314
G1 X114.526 Y54.008 E.65292
G1 X114.107 Y54.008 E.01314
G1 X114.107 Y33.184 E.65292
G1 X113.688 Y33.184 E.01314
G1 X113.688 Y54.008 E.65292
G1 X113.269 Y54.008 E.01314
G1 X113.269 Y33.184 E.65292
G1 X112.85 Y33.184 E.01314
G1 X112.85 Y54.008 E.65292
G1 X112.431 Y54.008 E.01314
G1 X112.431 Y33.184 E.65292
G1 X112.012 Y33.184 E.01314
G1 X112.012 Y54.008 E.65292
G1 X111.593 Y54.008 E.01314
G1 X111.593 Y33.184 E.65292
G1 X111.174 Y33.184 E.01314
G1 X111.174 Y54.008 E.65292
G1 X110.755 Y54.008 E.01314
G1 X110.755 Y33.184 E.65292
G1 X110.336 Y33.184 E.01314
G1 X110.336 Y54.008 E.65292
G1 X109.917 Y54.008 E.01314
G1 X109.917 Y33.184 E.65292
G1 X109.498 Y33.184 E.01314
G1 X109.498 Y54.008 E.65292
G1 X109.079 Y54.008 E.01314
G1 X109.079 Y33.184 E.65292
G1 X108.66 Y33.184 E.01314
G1 X108.66 Y54.008 E.65292
G1 X108.241 Y54.008 E.01314
G1 X108.241 Y33.184 E.65292
G1 X107.822 Y33.184 E.01314
G1 X107.822 Y54.008 E.65292
G1 X107.403 Y54.008 E.01314
G1 X107.403 Y33.184 E.65292
G1 X106.984 Y33.184 E.01314
G1 X106.984 Y54.008 E.65292
G1 X106.565 Y54.008 E.01314
G1 X106.565 Y33.184 E.65292
G1 X106.146 Y33.184 E.01314
G1 X106.146 Y54.008 E.65292
G1 X105.727 Y54.008 E.01314
G1 X105.727 Y33.184 E.65292
G1 X105.308 Y33.184 E.01314
G1 X105.308 Y54.008 E.65292
G1 X104.889 Y54.008 E.01314
G1 X104.889 Y33.184 E.65292
G1 X104.47 Y33.184 E.01314
G1 X104.47 Y54.008 E.65292
G1 X104.051 Y54.008 E.01314
M73 P1 R169
G1 X104.051 Y33.184 E.65292
G1 X103.632 Y33.184 E.01314
G1 X103.632 Y54.008 E.65292
G1 X103.213 Y54.008 E.01314
G1 X103.213 Y33.184 E.65292
G1 X102.794 Y33.184 E.01314
G1 X102.794 Y54.008 E.65292
G1 X102.375 Y54.008 E.01314
G1 X102.375 Y33.184 E.65292
G1 X101.956 Y33.184 E.01314
G1 X101.956 Y54.008 E.65292
G1 X101.537 Y54.008 E.01314
G1 X101.537 Y33.184 E.65292
G1 X101.118 Y33.184 E.01314
G1 X101.118 Y54.008 E.65292
G1 X100.699 Y54.008 E.01314
G1 X100.699 Y33.184 E.65292
G1 X100.28 Y33.184 E.01314
G1 X100.28 Y54.008 E.65292
G1 X99.861 Y54.008 E.01314
G1 X99.861 Y33.184 E.65292
G1 X99.442 Y33.184 E.01314
G1 X99.442 Y54.008 E.65292
G1 X99.023 Y54.008 E.01314
G1 X99.023 Y33.184 E.65292
G1 X98.604 Y33.184 E.01314
G1 X98.604 Y54.008 E.65292
G1 X98.185 Y54.008 E.01314
G1 X98.185 Y33.184 E.65292
G1 X97.767 Y33.184 E.01311
G1 X97.766 Y54.008 E.65292
G1 X97.661 Y54.008 E.00329
G1 X97.348 Y54.321 E.01388
G1 X97.348 Y33.184 E.66274
G1 X96.929 Y33.184 E.01314
G1 X96.929 Y59.155 E.8143
G1 X96.51 Y59.155 E.01314
M73 Q1 S170
G1 X96.51 Y33.184 E.8143
G1 X96.091 Y33.184 E.01314
G1 X96.091 Y59.155 E.8143
G1 X95.672 Y59.155 E.01314
G1 X95.672 Y33.184 E.8143
G1 X95.253 Y33.184 E.01314
G1 X95.253 Y59.155 E.8143
G1 X94.834 Y59.155 E.01314
G1 X94.834 Y33.014 E.81963
M204 S1000
;WIPE_START
G1 F8640
G1 X94.834 Y36.479 E-.8
;WIPE_END
G1 Z.6 F720
G1 X151.24 Y80.261 F10800
G1 Z.2 F720
G1 E.8 F2100
M204 S800
;TYPE:Perimeter
;WIDTH:0.419999
G1 F1200
G1 X151.298 Y80.465 E.00665
G1 X151.503 Y80.66 E.00887
G1 X151.778 Y80.732 E.00891
G1 X171.228 Y80.732 E.60984
G1 X173.098 Y83.396 E.10205
G1 X174.997 Y86.501 E.11412
G1 X176.695 Y89.719 E.11408
G1 X178.187 Y93.038 E.1141
G1 X179.466 Y96.445 E.1141
G1 X180.527 Y99.926 E.1141
G1 X181.365 Y103.467 E.11409
G1 X181.978 Y107.054 E.1141
G1 X182.363 Y110.673 E.11411
G1 X182.519 Y114.309 E.11411
G1 X182.496 Y115.389 E.03387
G1 X182.444 Y117.947 E.08022
G1 X182.139 Y121.573 E.11409
G1 X181.605 Y125.173 E.11411
G1 X180.845 Y128.732 E.11411
G1 X179.862 Y132.236 E.11411
G1 X178.659 Y135.67 E.11409
G1 X177.241 Y139.022 E.11412
G1 X175.614 Y142.277 E.1141
G1 X173.784 Y145.422 E.11409
G1 X171.76 Y148.446 E.11409
G1 X169.548 Y151.336 E.11411
G1 X167.158 Y154.08 E.1141
G1 X164.599 Y156.667 E.11409
G1 X161.881 Y159.088 E.11413
G1 X159.016 Y161.331 E.11408
G1 X156.015 Y163.39 E.11411
G1 X152.89 Y165.254 E.11409
G1 X149.653 Y166.917 E.1141
G1 X146.317 Y168.371 E.1141
G1 X142.896 Y169.612 E.1141
G1 X139.404 Y170.635 E.11409
G1 X135.854 Y171.434 E.11409
G1 X132.26 Y172.007 E.11411
G1 X128.637 Y172.352 E.11411
G1 X125 Y172.467 E.11409
G1 X121.363 Y172.352 E.11409
G1 X117.74 Y172.007 E.11411
G1 X114.146 Y171.434 E.11411
G1 X110.596 Y170.635 E.11409
M73 P2 R169
G1 X107.104 Y169.612 E.11409
G1 X103.683 Y168.371 E.1141
G1 X100.347 Y166.917 E.1141
G1 X97.11 Y165.254 E.1141
G1 X93.985 Y163.39 E.11409
G1 X90.984 Y161.331 E.11411
G1 X88.119 Y159.088 E.11408
M73 Q2 S170
G1 X85.401 Y156.667 E.11413
G1 X82.842 Y154.08 E.11409
G1 X80.452 Y151.336 E.1141
G1 X78.24 Y148.446 E.11411
G1 X76.216 Y145.422 E.11409
G1 X74.386 Y142.277 E.11409
G1 X72.759 Y139.022 E.1141
G1 X71.341 Y135.67 E.11412
G1 X70.138 Y132.236 E.11409
G1 X69.155 Y128.732 E.11411
G1 X68.395 Y125.173 E.11411
G1 X67.861 Y121.573 E.11411
G1 X67.556 Y117.947 E.11409
G1 X67.481 Y114.309 E.11409
G1 X67.637 Y110.673 E.11411
G1 X68.022 Y107.054 E.11411
G1 X68.635 Y103.467 E.1141
G1 X69.473 Y99.926 E.11409
G1 X70.534 Y96.445 E.1141
G1 X71.813 Y93.038 E.1141
G1 X73.305 Y89.719 E.1141
G1 X75.003 Y86.501 E.11408
G1 X76.902 Y83.396 E.11412
G1 X78.772 Y80.732 E.10205
G1 X98.221 Y80.732 E.60981
G1 X98.518 Y80.648 E.00968
G1 X98.714 Y80.444 E.00887
G1 X98.787 Y80.167 E.00898
G1 X98.787 Y55.615 E.76981
G1 X151.213 Y55.615 E1.64378
G1 X151.213 Y80.167 E.76981
G1 X151.223 Y80.203 E.00117
M204 S1000
G1 X151.223 Y80.203 F10800
G1 X151.59 Y80.167
M204 S800
;TYPE:External perimeter
G1 F1200
G1 X151.633 Y80.287 E.004
G1 X151.778 Y80.355 E.00502
G1 X171.424 Y80.355 E.61599
G1 X173.414 Y83.189 E.10858
G1 X175.325 Y86.314 E.11485
G1 X177.035 Y89.554 E.11487
G1 X178.536 Y92.895 E.11484
G1 X179.823 Y96.324 E.11484
G1 X180.891 Y99.828 E.11486
G1 X181.735 Y103.392 E.11484
G1 X182.352 Y107.003 E.11486
G1 X182.739 Y110.645 E.11484
G1 X182.896 Y114.305 E.11486
G1 X182.873 Y115.396 E.03422
G1 X182.82 Y117.967 E.08063
G1 X182.514 Y121.617 E.11484
G1 X181.977 Y125.24 E.11484
G1 X181.212 Y128.822 E.11484
G1 X180.222 Y132.349 E.11486
G1 X179.011 Y135.806 E.11485
G1 X177.584 Y139.179 E.11483
G1 X175.946 Y142.456 E.11487
G1 X174.104 Y145.622 E.11485
G1 X172.066 Y148.666 E.11486
G1 X169.84 Y151.575 E.11485
G1 X167.434 Y154.337 E.11485
