; generated by PrusaSlicer 2.7.4+win64 on 2024-04-27 at 08:31:43 UTC


;
;
; 

; external perimeters extrusion width = 0.45mm
; perimeters extrusion width = 0.45mm
; infill extrusion width = 0.45mm
; solid infill extrusion width = 0.45mm
; top infill extrusion width = 0.40mm
; first layer extrusion width = 0.42mm

M73 P0 R144
M73 Q0 S144
M201 X1000 Y1000 Z200 E5000 ; sets maximum accelerations, mm/sec^2
M203 X200 Y200 Z12 E120 ; sets maximum feedrates, mm / sec
M204 S1250 T1250 ; sets acceleration (S) and retract acceleration (R), mm/sec^2
M205 X8.00 Y8.00 Z0.40 E4.50 ; sets the jerk limits, mm/sec
M205 S0 T0 ; sets the minimum extruding and travel feed rate, mm/sec

; printing object new_cookie_jar_lidt (v2~recovered).stl id:0 copy 0
; stop printing object new_cookie_jar_lidt (v2~recovered).stl id:0 copy 0

;TYPE:Custom
M862.3 P "MK3" ; printer model check
M862.1 P0.4 ; nozzle diameter check
M115 U3.13.3 ; tell printer latest fw version
G90 ; use absolute coordinates
M83 ; extruder relative mode
M104 S255 ; set extruder temp
M140 S100 ; set bed temp
M190 S100 ; wait for bed temp
M109 S255 ; wait for extruder temp
G28 W ; home all without mesh bed level
G80 X55.883 Y43.6982 W121.742 H124.028 ; mesh bed levelling

G1 Z0.2 F720
G1 Y-3 F1000 ; go outside print area
G92 E0
G1 X60 E9 F1000 ; intro line
G1 X100 E12.5 F1000 ; intro line

G92 E0
M221 S95

; Don't change E values below. Excessive value can damage the printer.

M907 E538 ; set extruder motor current
G21 ; set units to millimeters
G90 ; use absolute coordinates
M83 ; use relative distances for extrusion

M900 K0.04 ; Filament gcode LA 1.5
M900 K20 ; Filament gcode LA 1.0




M107
;LAYER_CHANGE
;Z:0.2
;HEIGHT:0.2
G1 E-.8 F2100
G1 Z.6 F720
G1 X68.65 Y69.982 F10800
G1 Z.2 F720
G1 E.8 F2100
M204 S800
;TYPE:Skirt/Brim
;WIDTH:0.42
G1 F1200
G1 X101.287 Y44.393 E1.30034
G1 X102.754 Y43.887 E.04866
G1 X130.754 Y43.887 E.87792
G1 X132.221 Y44.393 E.04866
M73 P0 R143
G1 X164.858 Y69.982 E1.30034
G1 X165.336 Y70.487 E.0218
G1 X167.456 Y73.506 E.11567
G1 X169.538 Y76.909 E.12508
G1 X171.26 Y80.172 E.11568
G1 X172.838 Y83.671 E.12035
G1 X174.239 Y87.407 E.12511
G1 X175.315 Y90.935 E.11565
G1 X176.204 Y94.67 E.12038
G1 X176.876 Y98.602 E.12507
G1 X177.266 Y102.271 E.11569
G1 X177.435 Y106.106 E.12036
G1 X177.353 Y110.095 E.1251
G1 X177.027 Y113.92 E.12036
G1 X176.486 Y117.569 E.11566
G1 X175.653 Y121.471 E.1251
G1 X174.656 Y125.022 E.11564
G1 X173.391 Y128.647 E.12038
G1 X171.836 Y132.321 E.12509
G1 X170.187 Y135.621 E.11567
G1 X168.261 Y138.942 E.12037
G1 X166.042 Y142.257 E.12508
G1 X163.799 Y145.186 E.11567
G1 X161.281 Y148.084 E.12037
G1 X158.585 Y150.817 E.12037
G1 X155.721 Y153.375 E.1204
G1 X152.58 Y155.834 E.12507
G1 X149.538 Y157.921 E.11567
G1 X146.243 Y159.891 E.12037
G1 X142.695 Y161.714 E.12507
G1 X139.313 Y163.189 E.11569
G1 X135.706 Y164.503 E.12037
G1 X131.877 Y165.624 E.12509
G1 X128.278 Y166.434 E.11567
G1 X124.488 Y167.043 E.12036
G1 X120.516 Y167.421 E.1251
G1 X116.679 Y167.538 E.12036
G1 X112.992 Y167.421 E.11566
G1 X109.02 Y167.043 E.1251
G1 X105.23 Y166.434 E.12036
G1 X101.631 Y165.624 E.11567
G1 X97.802 Y164.503 E.12509
G1 X94.334 Y163.245 E.11567
G1 X90.813 Y161.714 E.12038
G1 X87.265 Y159.891 E.12507
G1 X84.097 Y158.002 E.11565
G1 X80.928 Y155.834 E.12039
G1 X77.787 Y153.375 E.12507
G1 X75.032 Y150.921 E.11568
G1 X72.329 Y148.195 E.12037
G1 X69.804 Y145.303 E.12037
G1 X67.467 Y142.257 E.12038
G1 X65.247 Y138.942 E.12509
G1 X63.392 Y135.753 E.11567
G1 X61.672 Y132.321 E.12037
G1 X60.117 Y128.647 E.12509
G1 X58.853 Y125.022 E.12037
G1 X57.856 Y121.471 E.11564
G1 X57.049 Y117.717 E.12039
G1 X56.482 Y113.92 E.12037
G1 X56.147 Y109.945 E.12508
G1 X56.072 Y106.257 E.11566
G1 X56.231 Y102.421 E.12038
G1 X56.653 Y98.454 E.12508
G1 X57.304 Y94.67 E.12039
G1 X58.154 Y91.08 E.11567
G1 X59.317 Y87.264 E.12508
G1 X60.613 Y83.81 E.11567
G1 X62.183 Y80.307 E.12036
G1 X64.045 Y76.778 E.12511
G1 X65.969 Y73.631 E.11565
G1 X68.172 Y70.487 E.12037
G1 X68.609 Y70.026 E.01992
M204 S1000
;WIPE_START
G1 F8640
G1 X68.65 Y69.982 E-.01389
G1 X71.329 Y67.881 E-.78611
;WIPE_END
G1 Z.6 F720
; printing object new_cookie_jar_lidt (v2~recovered).stl id:0 copy 0
G1 X129.994 Y72.168 F10800
G1 Z.2 F720
G1 E.8 F2100
M204 S800
;TYPE:Perimeter
;WIDTH:0.419999
G1 F1200
G1 X130.053 Y72.374 E.00672
G1 X130.26 Y72.57 E.00894
G1 X130.533 Y72.64 E.00884
G1 X162.982 Y72.64 E1.01741
G1 X164.852 Y75.304 E.10205
G1 X166.751 Y78.408 E.11409
G1 X168.45 Y81.626 E.1141
G1 X169.941 Y84.946 E.11411
G1 X171.22 Y88.353 E.1141
G1 X172.281 Y91.834 E.1141
G1 X173.119 Y95.375 E.11409
G1 X173.732 Y98.962 E.1141
G1 X174.117 Y102.581 E.11411
G1 X174.273 Y106.216 E.11408
G1 X174.25 Y107.291 E.03371
G1 X174.198 Y109.855 E.08041
G1 X173.893 Y113.481 E.11409
G1 X173.36 Y117.081 E.11411
G1 X172.599 Y120.639 E.11408
G1 X171.616 Y124.143 E.11411
G1 X170.413 Y127.578 E.11412
G1 X168.995 Y130.929 E.11409
G1 X167.368 Y134.184 E.1141
G1 X165.539 Y137.33 E.1141
G1 X163.514 Y140.354 E.11411
G1 X161.302 Y143.243 E.11408
G1 X158.912 Y145.987 E.1141
G1 X156.353 Y148.575 E.11411
G1 X153.635 Y150.995 E.11411
G1 X150.77 Y153.239 E.1141
G1 X147.769 Y155.297 E.11409
G1 X144.644 Y157.161 E.11409
G1 X141.407 Y158.824 E.1141
G1 X138.071 Y160.279 E.11411
G1 X134.65 Y161.52 E.1141
G1 X131.158 Y162.542 E.11408
G1 X127.608 Y163.342 E.1141
G1 X124.014 Y163.915 E.11411
G1 X120.391 Y164.26 E.11411
G1 X116.754 Y164.375 E.11409
G1 X113.117 Y164.26 E.11409
G1 X109.494 Y163.915 E.11411
G1 X105.901 Y163.342 E.11408
G1 X102.35 Y162.542 E.11413
G1 X98.858 Y161.52 E.11408
G1 X95.437 Y160.279 E.1141
G1 X92.101 Y158.824 E.11411
G1 X88.864 Y157.161 E.1141
G1 X85.739 Y155.297 E.11409
G1 X82.738 Y153.239 E.11409
G1 X79.873 Y150.995 E.1141
G1 X77.155 Y148.575 E.11411
G1 X74.596 Y145.987 E.11411
G1 X72.206 Y143.243 E.1141
G1 X69.994 Y140.354 E.11408
G1 X67.97 Y137.33 E.11409
G1 X66.14 Y134.184 E.11411
G1 X64.513 Y130.929 E.1141
G1 X63.095 Y127.578 E.11409
G1 X61.892 Y124.143 E.11412
G1 X60.909 Y120.639 E.11411
G1 X60.149 Y117.081 E.11408
G1 X59.615 Y113.481 E.11411
G1 X59.31 Y109.855 E.11409
G1 X59.236 Y106.216 E.11412
G1 X59.391 Y102.581 E.11408
G1 X59.776 Y98.962 E.11411
G1 X60.389 Y95.375 E.1141
G1 X61.227 Y91.834 E.11409
G1 X62.288 Y88.353 E.1141
G1 X63.567 Y84.946 E.1141
G1 X65.059 Y81.626 E.11412
G1 X66.757 Y78.408 E.11408
G1 X68.656 Y75.304 E.11409
G1 X70.526 Y72.64 E.10205
G1 X102.863 Y72.64 E1.0139
G1 X102.999 Y72.639 E.00426
G1 X103.269 Y72.558 E.00884
G1 X103.467 Y72.354 E.00891
G1 X103.541 Y72.074 E.00908
G1 X103.541 Y47.522 E.76981
G1 X129.967 Y47.522 E.82857
G1 X129.967 Y72.074 E.76981
G1 X129.977 Y72.11 E.00117
M204 S1000
G1 X129.977 Y72.11 F10800
G1 X130.344 Y72.074
M204 S800
;TYPE:External perimeter
G1 F1200
G1 X130.389 Y72.196 E.00408
G1 X130.533 Y72.263 E.00498
G1 X163.178 Y72.263 E1.02356
G1 X165.168 Y75.097 E.10858
G1 X167.079 Y78.222 E.11485
G1 X168.789 Y81.461 E.11484
G1 X170.29 Y84.802 E.11484
G1 X171.577 Y88.231 E.11484
G1 X172.645 Y91.735 E.11486
G1 X173.489 Y95.3 E.11487
G1 X174.106 Y98.91 E.11483
G1 X174.493 Y102.553 E.11487
G1 X174.65 Y106.212 E.11483
G1 X174.627 Y107.298 E.03406
G1 X174.574 Y109.874 E.08079
G1 X174.268 Y113.524 E.11484
G1 X173.731 Y117.148 E.11487
G1 X172.966 Y120.73 E.11484
G1 X171.976 Y124.257 E.11486
G1 X170.765 Y127.713 E.11482
G1 X169.338 Y131.087 E.11486
G1 X167.7 Y134.363 E.11484
G1 X165.859 Y137.53 E.11486
M73 Q0 S143
G1 X163.82 Y140.573 E.11485
G1 X161.594 Y143.482 E.11485
G1 X159.188 Y146.244 E.11485
G1 X156.612 Y148.848 E.11485
G1 X153.877 Y151.285 E.11486
G1 X150.993 Y153.543 E.11484
G1 X147.973 Y155.615 E.11483
G1 X144.827 Y157.491 E.11485
G1 X141.569 Y159.165 E.11485
G1 X138.211 Y160.629 E.11486
G1 X134.768 Y161.879 E.11485
G1 X131.252 Y162.907 E.11486
G1 X127.679 Y163.712 E.11484
G1 X124.062 Y164.289 E.11484
G1 X120.415 Y164.636 E.11487
G1 X116.754 Y164.752 E.11485
G1 X113.093 Y164.636 E.11485
G1 X109.447 Y164.289 E.11483
G1 X105.829 Y163.712 E.11487
G1 X102.256 Y162.907 E.11484
G1 X98.74 Y161.878 E.11487
G1 X95.297 Y160.629 E.11484
G1 X91.94 Y159.165 E.11483
G1 X88.681 Y157.491 E.11488
G1 X85.536 Y155.615 E.11482
G1 X82.515 Y153.543 E.11486
G1 X79.631 Y151.285 E.11484
G1 X76.896 Y148.848 E.11486
G1 X74.32 Y146.244 E.11485
G1 X71.914 Y143.482 E.11485
G1 X69.688 Y140.573 E.11485
G1 X67.65 Y137.53 E.11483
G1 X65.808 Y134.363 E.11487
G1 X64.17 Y131.087 E.11484
G1 X62.743 Y127.713 E.11486
G1 X61.532 Y124.257 E.11482
G1 X60.542 Y120.73 E.11486
G1 X59.777 Y117.148 E.11484
G1 X59.24 Y113.524 E.11487
G1 X58.934 Y109.874 E.11484
G1 X58.858 Y106.212 E.11484
G1 X59.015 Y102.553 E.11483
G1 X59.402 Y98.91 E.11487
G1 X60.019 Y95.3 E.11483
G1 X60.863 Y91.735 E.11487
G1 X61.931 Y88.231 E.11486
G1 X63.218 Y84.802 E.11484
G1 X64.72 Y81.461 E.11485
G1 X66.429 Y78.222 E.11483
G1 X68.34 Y75.097 E.11485
G1 X70.33 Y72.263 E.10858
G1 X102.976 Y72.263 E1.02359
G1 X103.097 Y72.219 E.00404
G1 X103.164 Y72.074 E.00501
G1 X103.164 Y47.145 E.78163
G1 X130.344 Y47.145 E.85221
G1 X130.344 Y72.014 E.77975
M204 S1000
;WIPE_START
G1 F8640
G1 X130.344 Y72.074 E-.01385
G1 X130.389 Y72.196 E-.03003
G1 X130.533 Y72.263 E-.03667
G1 X133.649 Y72.263 E-.71945
;WIPE_END
G1 Z.6 F720
G1 X162.121 Y72.809 F10800
G1 Z.2 F720
G1 E.8 F2100
M204 S800
;TYPE:Solid infill
;WIDTH:0.420634
G1 F1200
G1 X164.019 Y74.708 E.08432
G1 X164.568 Y75.49 E.03001
G1 X165.043 Y76.265 E.02855
G1 X161.757 Y72.979 E.14595
G1 X161.222 Y72.979 E.0168
G1 X165.884 Y77.64 E.20705
G1 X166.456 Y78.576 E.03445
G1 X166.647 Y78.938 E.01285
G1 X160.688 Y72.979 E.26468
G1 X160.154 Y72.979 E.01677
G1 X167.244 Y80.069 E.31491
G1 X167.841 Y81.2 E.04017
G1 X159.62 Y72.979 E.36515
G1 X159.086 Y72.979 E.01677
G1 X168.359 Y82.252 E.41187
G1 X168.795 Y83.222 E.0334
M73 P0 R142
G1 X158.552 Y72.979 E.45496
G1 X158.017 Y72.979 E.0168
G1 X169.231 Y84.192 E.49806
G1 X169.656 Y85.152 E.03297
G1 X157.483 Y72.979 E.54068
G1 X156.949 Y72.979 E.01677
G1 X169.977 Y86.007 E.57866
G1 X170.298 Y86.862 E.02868
G1 X156.415 Y72.979 E.61663
G1 X155.881 Y72.979 E.01677
G1 X170.619 Y87.718 E.65463
G1 X170.929 Y88.561 E.02821
G1 X155.346 Y72.979 E.69212
G1 X154.812 Y72.979 E.01677
G1 X171.163 Y89.33 E.72625
G1 X171.397 Y90.098 E.02522
G1 X154.278 Y72.979 E.76036
G1 X153.744 Y72.979 E.01677
G1 X171.631 Y90.866 E.79447
G1 X171.865 Y91.635 E.02525
G1 X153.21 Y72.979 E.82861
G1 X152.676 Y72.979 E.01677
G1 X172.057 Y92.36 E.86083
G1 X172.222 Y93.06 E.02259
G1 X152.141 Y72.979 E.89192
G1 X151.607 Y72.979 E.01677
G1 X172.388 Y93.76 E.92301
G1 X172.554 Y94.46 E.02259
M73 P1 R142
M73 Q1 S143
G1 X151.073 Y72.979 E.95411
G1 X150.539 Y72.979 E.01677
G1 X172.72 Y95.16 E.9852
G1 X172.852 Y95.827 E.02135
G1 X150.005 Y72.979 E1.0148
G1 X149.471 Y72.979 E.01677
G1 X172.962 Y96.471 E1.0434
G1 X173.072 Y97.115 E.02052
G1 X148.936 Y72.979 E1.07203
G1 X148.402 Y72.979 E.01677
G1 X173.183 Y97.759 E1.10066
G1 X173.293 Y98.404 E.02055
G1 X147.868 Y72.979 E1.12928
G1 X147.334 Y72.979 E.01677
G1 X173.4 Y99.045 E1.15775
G1 X173.463 Y99.643 E.01889
G1 X146.8 Y72.979 E1.18429
G1 X146.266 Y72.979 E.01677
G1 X173.527 Y100.241 E1.21085
G1 X173.591 Y100.838 E.01886
G1 X145.731 Y72.979 E1.23742
G1 X145.197 Y72.979 E.01677
G1 X173.654 Y101.436 E1.26395
G1 X173.718 Y102.034 E.01889
G1 X144.663 Y72.979 E1.29051
G1 X144.129 Y72.979 E.01677
G1 X173.78 Y102.63 E1.31699
G1 X173.804 Y103.188 E.01754
M73 Q1 S142
G1 X143.595 Y72.979 E1.34177
G1 X143.061 Y72.979 E.01677
G1 X173.827 Y103.746 E1.36653
G1 X173.851 Y104.304 E.01754
G1 X142.526 Y72.979 E1.39134
G1 X141.992 Y72.979 E.01677
G1 X173.875 Y104.862 E1.41612
G1 X173.899 Y105.42 E.01754
G1 X141.458 Y72.979 E1.44091
G1 X140.924 Y72.979 E.01677
G1 X173.923 Y105.978 E1.46569
G1 X173.927 Y106.516 E.0169
G1 X140.39 Y72.979 E1.48959
G1 X139.856 Y72.979 E.01677
G1 X173.916 Y107.04 E1.51284
G1 X173.905 Y107.563 E.01643
M73 P1 R141
G1 X139.321 Y72.979 E1.53609
G1 X138.787 Y72.979 E.01677
G1 X173.895 Y108.087 E1.55937
G1 X173.884 Y108.61 E.01643
G1 X138.253 Y72.979 E1.5826
G1 X137.719 Y72.979 E.01677
G1 X173.873 Y109.133 E1.60583
G1 X173.862 Y109.657 E.01646
G1 X137.185 Y72.979 E1.62908
G1 X136.651 Y72.979 E.01677
G1 X173.832 Y110.16 E1.65144
G1 X173.79 Y110.653 E.01554
G1 X136.116 Y72.979 E1.67334
G1 X135.582 Y72.979 E.01677
G1 X173.749 Y111.146 E1.69524
G1 X173.707 Y111.638 E.01551
G1 X135.048 Y72.979 E1.71709
G1 X134.514 Y72.979 E.01677
G1 X173.666 Y112.131 E1.73899
G1 X173.624 Y112.624 E.01554
G1 X133.98 Y72.979 E1.76086
G1 X133.445 Y72.979 E.0168
G1 X173.583 Y113.117 E1.78278
G1 X173.532 Y113.6 E.01525
G1 X132.911 Y72.979 E1.80423
G1 X132.377 Y72.979 E.01677
G1 X173.463 Y114.065 E1.82489
G1 X173.394 Y114.53 E.01476
G1 X131.843 Y72.979 E1.84554
G1 X131.309 Y72.979 E.01677
M73 Q1 S141
G1 X173.325 Y114.996 E1.86622
G1 X173.256 Y115.461 E.01476
M73 P2 R141
M73 Q2 S141
G1 X130.605 Y72.809 E1.89442
M204 S1000
;WIPE_START
G1 F8640
G1 X133.055 Y75.259 E-.8
;WIPE_END
G1 Z.6 F720
G1 X129.797 Y48.498 F10800
G1 Z.2 F720
G1 E.8 F2100
M204 S800
G1 F1200
G1 X129.16 Y47.861 E.02829
G1 X128.626 Y47.861 E.01677
G1 X129.628 Y48.863 E.04451
G1 X129.628 Y49.397 E.01677
G1 X128.092 Y47.861 E.06822
G1 X127.558 Y47.861 E.01677
G1 X129.628 Y49.931 E.09194
G1 X129.628 Y50.465 E.01677
G1 X127.024 Y47.861 E.11566
G1 X126.49 Y47.861 E.01677
G1 X129.628 Y50.999 E.13938
G1 X129.628 Y51.534 E.0168
G1 X125.955 Y47.861 E.16314
G1 X125.421 Y47.861 E.01677
G1 X129.628 Y52.068 E.18686
G1 X129.628 Y52.602 E.01677
G1 X124.887 Y47.861 E.21058
G1 X124.353 Y47.861 E.01677
G1 X129.628 Y53.136 E.2343
G1 X129.628 Y53.67 E.01677
G1 X123.819 Y47.861 E.25801
G1 X123.285 Y47.861 E.01677
G1 X129.628 Y54.204 E.28173
G1 X129.628 Y54.739 E.0168
G1 X122.75 Y47.861 E.3055
G1 X122.216 Y47.861 E.01677
G1 X129.628 Y55.273 E.32921
G1 X129.628 Y55.807 E.01677
G1 X121.682 Y47.861 E.35293
G1 X121.148 Y47.861 E.01677
G1 X129.628 Y56.341 E.37665
G1 X129.628 Y56.875 E.01677
G1 X120.614 Y47.861 E.40037
G1 X120.08 Y47.861 E.01677
G1 X129.628 Y57.409 E.42409
G1 X129.628 Y57.944 E.0168
G1 X119.545 Y47.861 E.44785
G1 X119.011 Y47.861 E.01677
G1 X129.628 Y58.478 E.47157
G1 X129.628 Y59.012 E.01677
G1 X118.477 Y47.861 E.49529
G1 X117.943 Y47.861 E.01677
G1 X129.628 Y59.546 E.519
G1 X129.628 Y60.08 E.01677
G1 X117.409 Y47.861 E.54272
G1 X116.875 Y47.861 E.01677
G1 X129.628 Y60.614 E.56644
M73 P2 R140
G1 X129.628 Y61.149 E.0168
G1 X116.34 Y47.861 E.5902
G1 X115.806 Y47.861 E.01677
G1 X129.628 Y61.683 E.61392
G1 X129.628 Y62.217 E.01677
G1 X115.272 Y47.861 E.63764
G1 X114.738 Y47.861 E.01677
G1 X129.628 Y62.751 E.66136
G1 X129.628 Y63.285 E.01677
G1 X114.204 Y47.861 E.68508
G1 X113.67 Y47.861 E.01677
G1 X129.628 Y63.819 E.70879
G1 X129.628 Y64.354 E.0168
G1 X113.135 Y47.861 E.73256
G1 X112.601 Y47.861 E.01677
G1 X129.628 Y64.888 E.75628
G1 X129.628 Y65.422 E.01677
G1 X112.067 Y47.861 E.77999
G1 X111.533 Y47.861 E.01677
G1 X129.628 Y65.956 E.80371
G1 X129.628 Y66.49 E.01677
G1 X110.999 Y47.861 E.82743
G1 X110.465 Y47.861 E.01677
G1 X129.628 Y67.024 E.85115
G1 X129.628 Y67.559 E.0168
G1 X109.93 Y47.861 E.87491
G1 X109.396 Y47.861 E.01677
G1 X129.628 Y68.093 E.89863
G1 X129.628 Y68.627 E.01677
G1 X108.862 Y47.861 E.92235
G1 X108.328 Y47.861 E.01677
G1 X129.628 Y69.161 E.94607
G1 X129.628 Y69.695 E.01677
G1 X107.794 Y47.861 E.96978
G1 X107.26 Y47.861 E.01677
G1 X129.628 Y70.229 E.9935
G1 X129.628 Y70.764 E.0168
G1 X106.725 Y47.861 E1.01727
G1 X106.191 Y47.861 E.01677
G1 X129.628 Y71.298 E1.04098
G1 X129.628 Y71.832 E.01677
G1 X105.657 Y47.861 E1.0647
G1 X105.123 Y47.861 E.01677
G1 X173.188 Y115.926 E3.02319
G1 X173.119 Y116.391 E.01476
G1 X104.589 Y47.861 E3.04385
G1 X104.055 Y47.861 E.01677
G1 X173.05 Y116.857 E3.06452
G1 X172.964 Y117.306 E.01436
M73 Q2 S140
G1 X103.881 Y48.222 E3.06843
G1 X103.881 Y48.756 E.01677
G1 X172.87 Y117.746 E3.06426
G1 X172.776 Y118.186 E.01413
G1 X103.881 Y49.29 E3.06008
G1 X103.881 Y49.824 E.01677
G1 X172.682 Y118.626 E3.05591
G1 X172.588 Y119.066 E.01413
M73 P2 R139
G1 X103.881 Y50.358 E3.05173
G1 X103.881 Y50.892 E.01677
G1 X172.494 Y119.506 E3.04756
G1 X172.4 Y119.947 E.01416
M73 P3 R139
M73 Q3 S140
