;START_OF_HEADER
;HEADER_VERSION:0.1
;FLAVOR:Griffin
;GENERATOR.NAME:Cura_SteamEngine
;GENERATOR.VERSION:5.6.0
;GENERATOR.BUILD_DATE:2023-11-28
;TARGET_MACHINE.NAME:Ultimaker 3 Extended
;EXTRUDER_TRAIN.0.INITIAL_TEMPERATURE:200
;EXTRUDER_TRAIN.0.MATERIAL.VOLUME_USED:39788
;EXTRUDER_TRAIN.0.MATERIAL.GUID:506c9f0d-e3aa-4bd4-b2d2-23e2425b1aa9
;EXTRUDER_TRAIN.0.NOZZLE.DIAMETER:0.4
;EXTRUDER_TRAIN.0.NOZZLE.NAME:AA 0.4
;BUILD_PLATE.INITIAL_TEMPERATURE:60
;PRINT.TIME:15628
;PRINT.GROUPS:1
;PRINT.SIZE.MIN.X:9
;PRINT.SIZE.MIN.Y:6
;PRINT.SIZE.MIN.Z:0.2
;PRINT.SIZE.MAX.X:181.786
;PRINT.SIZE.MAX.Y:182.734
;PRINT.SIZE.MAX.Z:50
;SLICE_UUID:a02b0c65-75f8-4fd9-ae81-f041336ffbfc
;END_OF_HEADER
;Generated with Cura_SteamEngine 5.6.0
T0
M82 ;absolute extrusion mode

G92 E0
M190 S60
M109 S200
G0 F15000 X9 Y6 Z2
G280
G1 F1500 E-6.5
;LAYER_COUNT:250
;LAYER:0
M106 S255
M204 S1000
M205 X20 Y20
G1 F600 Z2.2
G0 F15000 X83.368 Y53.617 Z2.2
;TYPE:SKIRT
G1 F600 Z0.2
G1 F1500 E0
G1 F1800 X85.803 Y51.252 E0.04257
G1 X88.575 Y50.347 E0.07914
G1 X144.387 Y50.346 E0.77904
G1 X146.253 Y50.756 E0.803
G1 X147.729 Y51.74 E0.82524
G1 X149.579 Y53.648 E0.85857
G1 X150.48 Y56.425 E0.89518
G1 X150.48 Y75.465 E1.13395
G1 X163.971 Y75.465 E1.30313
G1 X166.573 Y76.204 E1.33705
G1 X168.443 Y77.853 E1.36832
G1 X171.073 Y81.606 E1.42579
G1 X173.357 Y85.348 E1.48077
G1 X175.151 Y88.753 E1.52903
G1 X176.788 Y92.38 E1.57893
G1 X178.395 Y96.65 E1.63615
G1 X179.488 Y100.242 E1.68323
G1 X180.504 Y104.591 E1.73924
G1 X181.203 Y108.717 E1.79172
G1 X181.628 Y112.817 E1.84341
G1 X181.786 Y116.515 E1.88982
G1 X181.695 Y121.004 E1.94613
G1 X181.331 Y125.192 E1.99885
G1 X180.788 Y128.854 E2.04527
G1 X179.829 Y133.309 E2.10242
G1 X178.804 Y136.943 E2.14977
G1 X177.314 Y141.176 E2.20604
G1 X175.753 Y144.858 E2.2562
G1 X173.844 Y148.66 E2.30955
G1 X171.99 Y151.846 E2.35577
G1 X169.501 Y155.565 E2.41189
G1 X166.928 Y158.923 E2.46494
G1 X164.498 Y161.713 E2.51134
G1 X161.353 Y164.887 E2.56737
G1 X158.197 Y167.687 E2.62028
G1 X155.282 Y169.97 E2.66671
G1 X151.518 Y172.555 E2.72398
G1 X148.274 Y174.486 E2.77132
G1 X144.281 Y176.532 E2.82758
G1 X140.89 Y178.01 E2.87397
G1 X136.593 Y179.561 E2.93126
G1 X132.878 Y180.641 E2.97978
G1 X128.59 Y181.6 E3.03488
G1 X124.526 Y182.232 E3.08645
G1 X120.392 Y182.618 E3.13852
G1 X116.273 Y182.734 E3.1902
G1 X112.576 Y182.617 E3.23658
G1 X108.029 Y182.181 E3.29386
G1 X104.262 Y181.575 E3.34171
G1 X99.926 Y180.596 E3.39745
G1 X96.355 Y179.549 E3.44412
G1 X92.338 Y178.095 E3.49769
G1 X88.317 Y176.336 E3.55273
G1 X84.649 Y174.444 E3.60449
G1 X81.471 Y172.548 E3.6509
G1 X77.855 Y170.067 E3.70589
G1 X74.47 Y167.407 E3.75988
G1 X71.689 Y164.93 E3.80658
G1 X68.493 Y161.703 E3.86354
G1 X66.064 Y158.914 E3.90992
G1 X63.449 Y155.498 E3.96386
G1 X61.062 Y151.928 E4.01772
G1 X58.946 Y148.274 E4.07067
G1 X57.292 Y144.962 E4.11709
G1 X55.681 Y141.164 E4.16883
G1 X54.165 Y136.841 E4.22628
G1 X53.073 Y132.895 E4.27762
G1 X52.21 Y128.826 E4.32979
G1 X51.617 Y124.755 E4.38138
G1 X51.307 Y121.071 E4.42774
G1 X51.214 Y116.488 E4.48522
G1 X51.407 Y112.382 E4.53677
G1 X51.799 Y108.701 E4.58319
G1 X52.573 Y104.202 E4.64044
G1 X53.526 Y100.192 E4.69213
G1 X54.609 Y96.64 E4.7387
G1 X56.221 Y92.367 E4.79597
G1 X57.92 Y88.61 E4.84767
G1 X59.647 Y85.338 E4.89407
G1 X62.035 Y81.45 E4.95129
G1 X64.644 Y77.737 E5.0082
G1 X66.727 Y76.046 E5.04184
G1 X69.142 Y75.465 E5.07299
G1 X82.52 Y75.465 E5.24076
G1 X82.52 Y56.111 E5.48346
G1 X83.368 Y53.617 E5.5165
G0 F15000 X83.716 Y53.837
G1 F1800 X86.016 Y51.603 E5.55671
G1 X88.638 Y50.747 E5.5913
G1 X144.342 Y50.746 E6.28985
G1 X146.094 Y51.131 E6.31234
G1 X147.474 Y52.051 E6.33314
G1 X149.228 Y53.86 E6.36474
G1 X150.08 Y56.486 E6.39936
G1 X150.08 Y75.865 E6.64238
G1 X163.915 Y75.865 E6.81587
G1 X166.376 Y76.564 E6.84796
G1 X168.141 Y78.121 E6.87747
G1 X170.745 Y81.836 E6.93436
G1 X173.003 Y85.534 E6.9887
G1 X174.786 Y88.918 E7.03667
G1 X176.423 Y92.545 E7.08657
G1 X178.012 Y96.767 E7.14314
G1 X179.098 Y100.333 E7.18989
G1 X180.114 Y104.682 E7.24589
G1 X180.805 Y108.758 E7.29774
G1 X181.228 Y112.834 E7.34913
G1 X181.386 Y116.532 E7.39554
G1 X181.295 Y120.996 E7.45153
G1 X180.935 Y125.133 E7.50361
G1 X180.392 Y128.795 E7.55003
G1 X179.444 Y133.2 E7.60654
G1 X178.419 Y136.834 E7.65389
G1 X176.946 Y141.02 E7.70954
G1 X175.395 Y144.679 E7.75938
G1 X173.498 Y148.459 E7.81241
G1 X171.644 Y151.645 E7.85864
G1 X169.169 Y155.342 E7.91443
G1 X166.626 Y158.66 E7.96686
G1 X164.196 Y161.45 E8.01325
G1 X161.088 Y164.588 E8.06864
G1 X157.95 Y167.372 E8.12125
G1 X155.035 Y169.655 E8.16768
G1 X151.313 Y172.211 E8.2243
G1 X148.069 Y174.142 E8.27164
G1 X144.121 Y176.165 E8.32727
G1 X140.73 Y177.643 E8.37366
G1 X136.481 Y179.177 E8.43031
G1 X132.766 Y180.257 E8.47883
G1 X128.528 Y181.205 E8.53329
G1 X124.489 Y181.834 E8.58455
G1 X120.381 Y182.218 E8.63629
G1 X116.286 Y182.334 E8.68766
G1 X112.589 Y182.217 E8.73405
G1 X108.093 Y181.786 E8.79069
G1 X104.326 Y181.18 E8.83853
G1 X100.039 Y180.212 E8.89365
G1 X96.468 Y179.165 E8.94031
G1 X92.474 Y177.719 E8.99358
G1 X88.5 Y175.981 E9.04798
G1 X84.854 Y174.1 E9.09942
G1 X81.676 Y172.204 E9.14583
G1 X78.081 Y169.737 E9.20051
G1 X74.736 Y167.108 E9.25386
G1 X71.973 Y164.648 E9.30025
G1 X68.795 Y161.44 E9.35688
G1 X66.366 Y158.651 E9.40326
G1 X63.782 Y155.276 E9.45656
G1 X61.395 Y151.706 E9.51042
G1 X59.304 Y148.095 E9.56275
G1 X57.65 Y144.783 E9.60917
G1 X56.049 Y141.008 E9.66059
G1 X54.551 Y136.734 E9.71739
G1 X53.459 Y132.788 E9.76873
G1 X52.606 Y128.768 E9.82027
G1 X52.016 Y124.721 E9.87155
G1 X51.706 Y121.037 E9.91792
G1 X51.614 Y116.507 E9.97473
G1 X51.805 Y112.424 E10.02599
G1 X52.197 Y108.743 E10.07242
G1 X52.962 Y104.294 E10.12903
G1 X53.909 Y100.309 E10.18039
G1 X54.992 Y96.757 E10.22696
G1 X56.585 Y92.532 E10.28358
G1 X58.274 Y88.797 E10.33499
G1 X60.001 Y85.525 E10.38138
G1 X62.362 Y81.68 E10.43797
G1 X64.938 Y78.014 E10.49415
G1 X66.909 Y76.414 E10.52599
G1 X69.19 Y75.865 E10.55541
G1 X82.92 Y75.865 E10.72759
G1 X82.92 Y56.178 E10.97447
G1 X83.716 Y53.837 E11.00548
G0 F15000 X84.064 Y54.057
G1 F1800 X86.229 Y51.954 E11.04333
G1 X88.701 Y51.147 E11.07594
G1 X144.297 Y51.146 E11.77314
G1 X145.935 Y51.506 E11.79417
G1 X147.219 Y52.362 E11.81352
G1 X148.877 Y54.072 E11.84339
G1 X149.68 Y56.547 E11.87602
G1 X149.68 Y76.265 E12.12329
G1 X163.859 Y76.265 E12.3011
G1 X166.179 Y76.924 E12.33134
G1 X167.839 Y78.389 E12.35911
G1 X170.417 Y82.066 E12.41542
G1 X172.649 Y85.721 E12.46913
G1 X174.421 Y89.083 E12.51679
G1 X176.058 Y92.71 E12.56669
G1 X177.629 Y96.884 E12.62262
G1 X178.708 Y100.424 E12.66903
G1 X179.724 Y104.773 E12.72503
G1 X180.407 Y108.799 E12.77624
G1 X180.828 Y112.851 E12.82733
G1 X180.986 Y116.549 E12.87375
G1 X180.896 Y120.961 E12.92909
G1 X180.539 Y125.074 E12.98086
G1 X179.996 Y128.736 E13.02728
G1 X179.059 Y133.091 E13.08315
G1 X178.034 Y136.725 E13.1305
G1 X176.578 Y140.864 E13.18552
G1 X175.027 Y144.523 E13.23536
G1 X173.152 Y148.258 E13.28776
G1 X171.298 Y151.444 E13.33399
G1 X168.851 Y155.099 E13.38915
G1 X166.324 Y158.397 E13.44125
G1 X163.894 Y161.187 E13.48765
G1 X160.822 Y164.289 E13.5424
G1 X157.703 Y167.057 E13.59469
G1 X154.788 Y169.34 E13.64112
G1 X151.108 Y171.867 E13.69711
G1 X147.864 Y173.798 E13.74445
G1 X143.961 Y175.798 E13.79945
G1 X140.57 Y177.276 E13.84583
G1 X136.369 Y178.793 E13.90185
G1 X132.654 Y179.873 E13.95036
G1 X128.466 Y180.81 E14.00418
G1 X124.452 Y181.436 E14.05512
G1 X120.37 Y181.818 E14.10654
G1 X116.299 Y181.934 E14.15761
G1 X112.602 Y181.817 E14.204
G1 X108.157 Y181.391 E14.25999
G1 X104.39 Y180.785 E14.30784
G1 X100.152 Y179.828 E14.36232
G1 X96.581 Y178.781 E14.40899
G1 X92.61 Y177.343 E14.46195
G1 X88.683 Y175.625 E14.51571
G1 X85.059 Y173.756 E14.56684
G1 X81.881 Y171.86 E14.61325
G1 X78.307 Y169.407 E14.66761
G1 X75.002 Y166.809 E14.72033
G1 X72.239 Y164.349 E14.76672
G1 X69.097 Y161.177 E14.82271
G1 X66.668 Y158.388 E14.86909
G1 X64.115 Y155.054 E14.92175
G1 X61.728 Y151.484 E14.9756
G1 X59.662 Y147.916 E15.02731
G1 X58.008 Y144.604 E15.07373
G1 X56.417 Y140.852 E15.12484
G1 X54.936 Y136.627 E15.18098
G1 X53.85 Y132.705 E15.23201
G1 X53.002 Y128.71 E15.28323
G1 X52.415 Y124.687 E15.33421
G1 X52.105 Y121.003 E15.38058
G1 X52.014 Y116.526 E15.43673
G1 X52.203 Y112.466 E15.4877
G1 X52.595 Y108.785 E15.53412
G1 X53.351 Y104.386 E15.5901
G1 X54.292 Y100.426 E15.64114
G1 X55.375 Y96.874 E15.68771
G1 X56.949 Y92.697 E15.74368
G1 X58.628 Y88.984 E15.79478
G1 X60.355 Y85.712 E15.84118
G1 X62.689 Y81.91 E15.89713
G1 X65.232 Y78.291 E15.95259
G1 X67.091 Y76.782 E15.98262
G1 X69.238 Y76.265 E16.01031
G1 X83.32 Y76.265 E16.18691
G1 X83.32 Y56.245 E16.43797
G1 X84.064 Y54.057 E16.46695
G0 F15000 X84.412 Y54.277
G1 F1800 X86.442 Y52.305 E16.50244
G1 X88.764 Y51.547 E16.53307
G1 X144.252 Y51.546 E17.22891
G1 X145.776 Y51.881 E17.24848
G1 X146.964 Y52.673 E17.26638
G1 X148.526 Y54.284 E17.29452
G1 X149.28 Y56.608 E17.32516
G1 X149.28 Y76.665 E17.57668
G1 X163.803 Y76.665 E17.75881
G1 X165.982 Y77.284 E17.78721
G1 X167.54 Y78.659 E17.81327
G1 X170.076 Y82.275 E17.86866
G1 X172.295 Y85.908 E17.92204
G1 X174.056 Y89.248 E17.96939
G1 X175.693 Y92.875 E18.0193
G1 X177.246 Y97.001 E18.07458
G1 X178.325 Y100.541 E18.12099
G1 X179.33 Y104.84 E18.17636
G1 X180.009 Y108.84 E18.22723
G1 X180.428 Y112.868 E18.27802
G1 X180.586 Y116.566 E18.32444
G1 X180.496 Y120.953 E18.37946
G1 X180.143 Y125.015 E18.43059
G1 X179.6 Y128.677 E18.47702
G1 X178.674 Y132.983 E18.53225
G1 X177.657 Y136.592 E18.57927
G1 X176.21 Y140.708 E18.63399
G1 X174.669 Y144.344 E18.68351
G1 X172.806 Y148.057 E18.7356
G1 X170.952 Y151.243 E18.78183
G1 X168.534 Y154.856 E18.83635
G1 X166.022 Y158.134 E18.88814
G1 X163.592 Y160.924 E18.93454
G1 X160.538 Y164.007 E18.98896
G1 X157.456 Y166.742 E19.04063
G1 X154.541 Y169.025 E19.08706
G1 X150.903 Y171.523 E19.1424
G1 X147.659 Y173.454 E19.18974
G1 X143.801 Y175.431 E19.24411
G1 X140.41 Y176.909 E19.2905
G1 X136.257 Y178.409 E19.34587
G1 X132.542 Y179.489 E19.39439
G1 X128.404 Y180.415 E19.44756
G1 X124.415 Y181.038 E19.49819
G1 X120.359 Y181.418 E19.54928
G1 X116.312 Y181.534 E19.60005
G1 X112.615 Y181.417 E19.64643
G1 X108.221 Y180.996 E19.70179
G1 X104.454 Y180.39 E19.74964
G1 X100.265 Y179.444 E19.80349
G1 X96.694 Y178.397 E19.85016
G1 X92.746 Y176.967 E19.90281
G1 X88.866 Y175.27 E19.95592
G1 X85.264 Y173.412 E20.00675
G1 X82.086 Y171.516 E20.05315
G1 X78.533 Y169.077 E20.1072
G1 X75.268 Y166.51 E20.15928
G1 X72.505 Y164.05 E20.20567
G1 X69.399 Y160.914 E20.26102
G1 X66.97 Y158.125 E20.3074
G1 X64.448 Y154.832 E20.35942
G1 X62.061 Y151.262 E20.41327
G1 X60.02 Y147.737 E20.46435
G1 X58.366 Y144.425 E20.51078
G1 X56.785 Y140.696 E20.56157
G1 X55.321 Y136.52 E20.61706
G1 X54.241 Y132.622 E20.66779
G1 X53.398 Y128.652 E20.71868
G1 X52.814 Y124.653 E20.76936
G1 X52.504 Y120.969 E20.81573
G1 X52.414 Y116.545 E20.87122
G1 X52.601 Y112.508 E20.9219
G1 X52.993 Y108.827 E20.96832
G1 X53.74 Y104.478 E21.02366
G1 X54.675 Y100.543 E21.07438
G1 X55.758 Y96.991 E21.12094
G1 X57.313 Y92.862 E21.17627
G1 X58.982 Y89.171 E21.22707
G1 X60.709 Y85.899 E21.27347
G1 X63.016 Y82.14 E21.32878
G1 X65.526 Y78.568 E21.38352
G1 X67.273 Y77.15 E21.41174
G1 X69.286 Y76.665 E21.43771
G1 X83.72 Y76.665 E21.61872
G1 X83.72 Y56.312 E21.87395
G1 X84.412 Y54.277 E21.9009
G0 F15000 X84.76 Y54.497
G1 F1800 X86.655 Y52.656 E21.93404
G1 X88.827 Y51.947 E21.96269
G1 X144.207 Y51.946 E22.65717
G1 X145.617 Y52.256 E22.67528
G1 X146.709 Y52.984 E22.69174
G1 X148.175 Y54.496 E22.71815
G1 X148.88 Y56.669 E22.7468
G1 X148.88 Y77.065 E23.00257
G1 X163.747 Y77.065 E23.18901
G1 X165.785 Y77.644 E23.21557
G1 X167.241 Y78.929 E23.23993
G1 X169.749 Y82.505 E23.2947
G1 X171.941 Y86.095 E23.34745
G1 X173.691 Y89.413 E23.39449
G1 X175.328 Y93.04 E23.44439
G1 X176.863 Y97.118 E23.49904
G1 X177.942 Y100.658 E23.54545
G1 X178.936 Y104.907 E23.60017
G1 X179.611 Y108.881 E23.65072
G1 X180.028 Y112.885 E23.7012
G1 X180.186 Y116.583 E23.74762
G1 X180.096 Y120.945 E23.80233
G1 X179.747 Y124.956 E23.85282
G1 X179.204 Y128.618 E23.89924
G1 X178.289 Y132.875 E23.95385
G1 X177.28 Y136.459 E24.00054
G1 X175.842 Y140.552 E24.05494
G1 X174.301 Y144.188 E24.10447
G1 X172.46 Y147.856 E24.15593
G1 X170.606 Y151.042 E24.20216
G1 X168.216 Y154.613 E24.25604
G1 X165.72 Y157.871 E24.30751
G1 X163.29 Y160.661 E24.35391
G1 X160.254 Y163.725 E24.408
G1 X157.209 Y166.427 E24.45905
G1 X154.294 Y168.71 E24.50549
G1 X150.698 Y171.179 E24.56019
G1 X147.454 Y173.11 E24.60753
G1 X143.641 Y175.064 E24.66126
G1 X140.25 Y176.542 E24.70765
G1 X136.145 Y178.025 E24.76238
G1 X132.43 Y179.105 E24.8109
G1 X128.342 Y180.02 E24.86343
G1 X124.378 Y180.64 E24.91375
G1 X120.347 Y181.018 E24.96452
G1 X116.325 Y181.134 E25.01498
G1 X112.628 Y181.017 E25.06136
G1 X108.285 Y180.601 E25.11607
G1 X104.518 Y179.995 E25.16392
G1 X100.378 Y179.06 E25.21715
G1 X96.807 Y178.013 E25.26381
G1 X92.882 Y176.591 E25.31616
G1 X89.049 Y174.915 E25.36863
G1 X85.469 Y173.068 E25.41914
G1 X82.291 Y171.172 E25.46555
G1 X78.78 Y168.762 E25.51895
G1 X75.534 Y166.211 E25.57073
G1 X72.771 Y163.751 E25.61712
G1 X69.701 Y160.651 E25.67183
G1 X67.272 Y157.862 E25.71821
G1 X64.781 Y154.61 E25.76958
G1 X62.394 Y151.04 E25.82344
G1 X60.378 Y147.558 E25.87389
G1 X58.724 Y144.246 E25.92032
G1 X57.153 Y140.54 E25.97079
G1 X55.706 Y136.413 E26.02564
G1 X54.632 Y132.539 E26.07605
G1 X53.794 Y128.594 E26.12663
G1 X53.213 Y124.619 E26.177
G1 X52.903 Y120.935 E26.22337
G1 X52.814 Y116.563 E26.2782
G1 X52.999 Y112.55 E26.32858
G1 X53.391 Y108.869 E26.375
G1 X54.129 Y104.57 E26.4297
G1 X55.058 Y100.66 E26.4801
G1 X56.141 Y97.108 E26.52667
G1 X57.677 Y93.027 E26.58135
G1 X59.336 Y89.358 E26.63185
G1 X61.063 Y86.086 E26.67824
G1 X63.343 Y82.37 E26.73292
G1 X65.82 Y78.845 E26.78694
G1 X67.455 Y77.518 E26.81335
G1 X69.334 Y77.065 E26.83759
G1 X84.12 Y77.065 E27.02301
G1 X84.12 Y56.379 E27.28242
G1 X84.76 Y54.497 E27.30735
G0 F15000 X85.108 Y54.717
G1 F1800 X86.868 Y53.007 E27.33812
G1 X88.89 Y52.347 E27.3648
G1 X144.162 Y52.346 E28.05793
G1 X145.458 Y52.631 E28.07457
G1 X146.454 Y53.295 E28.08958
G1 X147.824 Y54.708 E28.11426
G1 X148.48 Y56.73 E28.14092
G1 X148.48 Y77.465 E28.40094
G1 X163.691 Y77.465 E28.59169
G1 X165.588 Y78.004 E28.61642
G1 X166.94 Y79.197 E28.63904
G1 X169.421 Y82.735 E28.69323
G1 X171.587 Y86.282 E28.74534
G1 X173.326 Y89.578 E28.79208
G1 X174.963 Y93.205 E28.84198
G1 X176.48 Y97.235 E28.89598
G1 X177.559 Y100.775 E28.94239
G1 X178.542 Y104.974 E28.99647
G1 X179.213 Y108.922 E29.04669
G1 X179.628 Y112.902 E29.09687
G1 X179.786 Y116.6 E29.14329
G1 X179.697 Y120.91 E29.19735
G1 X179.351 Y124.897 E29.24753
G1 X178.808 Y128.559 E29.29396
G1 X177.904 Y132.767 E29.34793
G1 X176.903 Y136.326 E29.39429
G1 X175.474 Y140.396 E29.44839
G1 X173.933 Y144.032 E29.49791
G1 X172.114 Y147.655 E29.54875
G1 X170.26 Y150.841 E29.59498
G1 X167.884 Y154.39 E29.64853
G1 X165.418 Y157.608 E29.69938
G1 X162.988 Y160.398 E29.74577
G1 X159.989 Y163.426 E29.79922
G1 X156.962 Y166.112 E29.84997
G1 X154.047 Y168.395 E29.8964
G1 X150.493 Y170.835 E29.95046
G1 X147.249 Y172.766 E29.9978
G1 X143.481 Y174.697 E30.0509
G1 X140.09 Y176.175 E30.09729
G1 X136.033 Y177.641 E30.15138
G1 X132.318 Y178.721 E30.1999
G1 X128.28 Y179.625 E30.25179
G1 X124.341 Y180.242 E30.30179
G1 X120.335 Y180.618 E30.35225
G1 X116.338 Y180.734 E30.40239
G1 X112.641 Y180.617 E30.44878
G1 X108.349 Y180.206 E30.50285
G1 X104.582 Y179.6 E30.55069
G1 X100.491 Y178.676 E30.60329
G1 X96.92 Y177.629 E30.64996
G1 X93.018 Y176.215 E30.702
G1 X89.232 Y174.559 E30.75382
G1 X85.674 Y172.724 E30.80403
G1 X82.496 Y170.828 E30.85043
G1 X79.006 Y168.432 E30.90352
G1 X75.8 Y165.912 E30.95466
G1 X73.037 Y163.452 E31.00105
G1 X70.003 Y160.388 E31.05512
G1 X67.574 Y157.599 E31.1015
G1 X65.113 Y154.388 E31.15224
G1 X62.74 Y150.84 E31.20577
G1 X60.736 Y147.379 E31.25592
G1 X59.082 Y144.067 E31.30234
G1 X57.521 Y140.384 E31.35251
G1 X56.091 Y136.306 E31.4067
G1 X55.023 Y132.456 E31.4568
G1 X54.19 Y128.536 E31.50706
G1 X53.612 Y124.585 E31.55713
G1 X53.302 Y120.901 E31.6035
G1 X53.214 Y116.581 E31.65768
G1 X53.397 Y112.592 E31.70776
