;START_OF_HEADER
;HEADER_VERSION:0.1
;FLAVOR:Griffin
;GENERATOR.NAME:Cura_SteamEngine
;GENERATOR.VERSION:5.6.0
;GENERATOR.BUILD_DATE:2023-11-28
;TARGET_MACHINE.NAME:Ultimaker 3 Extended
;EXTRUDER_TRAIN.0.INITIAL_TEMPERATURE:200
;EXTRUDER_TRAIN.0.MATERIAL.VOLUME_USED:86113
;EXTRUDER_TRAIN.0.MATERIAL.GUID:506c9f0d-e3aa-4bd4-b2d2-23e2425b1aa9
;EXTRUDER_TRAIN.0.NOZZLE.DIAMETER:0.4
;EXTRUDER_TRAIN.0.NOZZLE.NAME:AA 0.4
;BUILD_PLATE.INITIAL_TEMPERATURE:60
;PRINT.TIME:24571
;PRINT.GROUPS:1
;PRINT.SIZE.MIN.X:9
;PRINT.SIZE.MIN.Y:6
;PRINT.SIZE.MIN.Z:0.2
;PRINT.SIZE.MAX.X:181.787
;PRINT.SIZE.MAX.Y:182.856
;PRINT.SIZE.MAX.Z:65
;SLICE_UUID:f265a939-81e5-47b4-a52a-a58c560a0591
;END_OF_HEADER
;Generated with Cura_SteamEngine 5.6.0
T0
M82 ;absolute extrusion mode

G92 E0
M190 S60
M109 S200
G0 F15000 X9 Y6 Z2
G280
G1 F1500 E-6.5
;LAYER_COUNT:325
;LAYER:0
M106 S255
M204 S1000
M205 X20 Y20
G1 F600 Z2.2
G0 F15000 X71.704 Y70.097 Z2.2
;TYPE:SKIRT
G1 F600 Z0.2
G1 F1500 E0
G1 F1800 X75.946 Y66.367 E0.07084
G1 X78.579 Y65.516 E0.10554
G1 X154.422 Y65.516 E1.05664
G1 X157.055 Y66.367 E1.09134
G1 X161.302 Y70.102 E1.16226
G1 X163.989 Y72.789 E1.20992
G1 X166.975 Y76.176 E1.26654
G1 X169.33 Y79.226 E1.31486
G1 X171.817 Y82.911 E1.37061
G1 X173.71 Y86.132 E1.41746
G1 X175.791 Y90.266 E1.4755
G1 X177.253 Y93.689 E1.52218
G1 X178.782 Y98.009 E1.57965
G1 X179.815 Y101.673 E1.62739
G1 X180.771 Y106.099 E1.68417
G1 X181.374 Y110.204 E1.7362
G1 X181.688 Y113.889 E1.78258
G1 X181.787 Y118.489 E1.84028
G1 X181.596 Y122.627 E1.89223
G1 X181.202 Y126.334 E1.93898
G1 X180.424 Y130.874 E1.99674
G1 X179.561 Y134.495 E2.04342
G1 X178.216 Y138.873 E2.10085
G1 X176.747 Y142.77 E2.15308
G1 X175.215 Y146.163 E2.19977
G1 X173.173 Y150.01 E2.25438
G1 X170.857 Y153.767 E2.30973
G1 X168.721 Y156.789 E2.35614
G1 X165.846 Y160.358 E2.41361
G1 X163.317 Y163.112 E2.4605
G1 X160.132 Y166.167 E2.51584
G1 X156.811 Y168.96 E2.57026
G1 X153.797 Y171.187 E2.61726
G1 X150.329 Y173.434 E2.66908
G1 X146.416 Y175.622 E2.7253
G1 X142.558 Y177.451 E2.77884
G1 X138.696 Y178.994 E2.83099
G1 X135.013 Y180.202 E2.8796
G1 X130.719 Y181.316 E2.93523
G1 X126.609 Y182.098 E2.9877
G1 X122.94 Y182.568 E3.03408
G1 X118.357 Y182.856 E3.09167
G1 X114.191 Y182.839 E3.14391
G1 X110.052 Y182.569 E3.19593
G1 X105.929 Y182.025 E3.24808
G1 X102.27 Y181.319 E3.29481
G1 X97.831 Y180.157 E3.35235
G1 X94.293 Y178.991 E3.39907
G1 X90.032 Y177.282 E3.45664
G1 X86.408 Y175.539 E3.50707
G1 X82.872 Y173.558 E3.5579
G1 X79.447 Y171.349 E3.60901
G1 X75.84 Y168.673 E3.66533
G1 X72.755 Y166.06 E3.71603
G1 X69.677 Y163.104 E3.76955
G1 X67.155 Y160.359 E3.81629
G1 X64.355 Y156.884 E3.87226
G1 X61.885 Y153.38 E3.92602
G1 X59.933 Y150.209 E3.97271
G1 X57.786 Y146.164 E4.03014
G1 X56.249 Y142.76 E4.07698
G1 X54.628 Y138.454 E4.13468
G1 X53.538 Y134.891 E4.1814
G1 X52.492 Y130.421 E4.23897
G1 X51.797 Y126.316 E4.29118
G1 X51.37 Y122.19 E4.3432
G1 X51.214 Y118.47 E4.38989
G1 X51.305 Y114.056 E4.44526
G1 X51.68 Y109.744 E4.49953
G1 X52.23 Y106.084 E4.54595
G1 X53.205 Y101.578 E4.60376
G1 X54.227 Y97.985 E4.65061
G1 X55.76 Y93.655 E4.70821
G1 X57.224 Y90.232 E4.7549
G1 X59.275 Y86.158 E4.8121
G1 X61.294 Y82.736 E4.86192
G1 X63.635 Y79.285 E4.91422
G1 X66.043 Y76.169 E4.9636
G1 X69.068 Y72.728 E5.02105
G1 X71.704 Y70.097 E5.06776
G0 F15000 X71.987 Y70.38
G1 F1800 X76.146 Y66.723 E5.13721
G1 X78.643 Y65.916 E5.17012
G1 X154.358 Y65.916 E6.11961
G1 X156.855 Y66.723 E6.15252
G1 X161.019 Y70.385 E6.22206
G1 X163.706 Y73.072 E6.26971
G1 X166.658 Y76.421 E6.3257
G1 X168.998 Y79.45 E6.3737
G1 X171.472 Y83.114 E6.42914
G1 X173.365 Y86.335 E6.47599
G1 X175.423 Y90.423 E6.53338
G1 X176.885 Y93.846 E6.58006
G1 X178.397 Y98.118 E6.63689
G1 X179.43 Y101.782 E6.68463
G1 X180.375 Y106.157 E6.74076
G1 X180.975 Y110.238 E6.79249
G1 X181.289 Y113.923 E6.83886
G1 X181.387 Y118.471 E6.89591
G1 X181.198 Y122.585 E6.94756
G1 X180.804 Y126.292 E6.99431
G1 X180.035 Y130.781 E7.05142
G1 X179.172 Y134.402 E7.0981
G1 X177.842 Y138.732 E7.1549
G1 X176.382 Y142.605 E7.20681
G1 X174.85 Y145.998 E7.25349
G1 X172.82 Y149.822 E7.30779
G1 X170.53 Y153.536 E7.3625
G1 X168.394 Y156.558 E7.40891
G1 X165.551 Y160.087 E7.46574
G1 X163.022 Y162.841 E7.51263
G1 X159.874 Y165.861 E7.56734
G1 X156.573 Y168.638 E7.62143
G1 X153.579 Y170.851 E7.66812
G1 X150.111 Y173.098 E7.71994
G1 X146.221 Y175.273 E7.77583
G1 X142.41 Y177.08 E7.82872
G1 X138.571 Y178.614 E7.88057
G1 X134.888 Y179.822 E7.92917
G1 X130.644 Y180.923 E7.98416
G1 X126.558 Y181.701 E8.03632
G1 X122.889 Y182.171 E8.0827
G1 X118.359 Y182.456 E8.13962
G1 X114.217 Y182.44 E8.19157
G1 X110.104 Y182.172 E8.24325
G1 X106.005 Y181.632 E8.2951
G1 X102.346 Y180.926 E8.34183
G1 X97.956 Y179.777 E8.39874
G1 X94.418 Y178.611 E8.44545
G1 X90.205 Y176.921 E8.50238
G1 X86.604 Y175.19 E8.55248
G1 X83.068 Y173.209 E8.60331
G1 X79.664 Y171.013 E8.65411
G1 X76.098 Y168.368 E8.70979
G1 X73.032 Y165.772 E8.76017
G1 X69.972 Y162.833 E8.81337
G1 X67.45 Y160.088 E8.86012
G1 X64.667 Y156.633 E8.91575
G1 X62.226 Y153.17 E8.96889
G1 X60.274 Y149.999 E9.01558
G1 X58.151 Y145.999 E9.07237
G1 X56.614 Y142.595 E9.11921
G1 X55.011 Y138.337 E9.17626
G1 X53.921 Y134.774 E9.22299
G1 X52.886 Y130.354 E9.27992
G1 X52.195 Y126.275 E9.3318
G1 X51.77 Y122.173 E9.38351
G1 X51.614 Y118.453 E9.43021
G1 X51.704 Y114.091 E9.48492
G1 X52.076 Y109.803 E9.53889
G1 X52.626 Y106.143 E9.58531
G1 X53.59 Y101.687 E9.64248
G1 X54.612 Y98.094 E9.68932
G1 X56.128 Y93.812 E9.74629
G1 X57.592 Y90.389 E9.79297
G1 X59.632 Y86.338 E9.84985
G1 X61.625 Y82.961 E9.89903
G1 X63.952 Y79.53 E9.95102
G1 X66.36 Y76.414 E10.0004
G1 X69.351 Y73.011 E10.05722
G1 X71.987 Y70.38 E10.10392
G0 F15000 X72.27 Y70.663
G1 F1800 X76.346 Y67.079 E10.17198
G1 X78.707 Y66.316 E10.2031
G1 X154.294 Y66.316 E11.15099
G1 X156.655 Y67.079 E11.1821
G1 X160.736 Y70.668 E11.25026
G1 X163.423 Y73.355 E11.29791
G1 X166.341 Y76.666 E11.35325
G1 X168.681 Y79.695 E11.40125
G1 X171.127 Y83.317 E11.45606
G1 X173.02 Y86.538 E11.50291
G1 X175.055 Y90.58 E11.55966
G1 X176.517 Y94.003 E11.60634
G1 X178.012 Y98.227 E11.66253
G1 X179.045 Y101.891 E11.71027
G1 X179.979 Y106.215 E11.76575
G1 X180.576 Y110.272 E11.81717
G1 X180.89 Y113.957 E11.86355
G1 X180.987 Y118.453 E11.91994
G1 X180.8 Y122.543 E11.97129
G1 X180.406 Y126.25 E12.01804
G1 X179.646 Y130.688 E12.0745
G1 X178.783 Y134.309 E12.12118
G1 X177.468 Y138.591 E12.17735
G1 X176.017 Y142.44 E12.22894
G1 X174.485 Y145.833 E12.27562
G1 X172.467 Y149.634 E12.32959
G1 X170.203 Y153.305 E12.38368
G1 X168.067 Y156.327 E12.43008
G1 X165.256 Y159.816 E12.48627
G1 X162.727 Y162.57 E12.53316
G1 X159.597 Y165.572 E12.58755
G1 X156.335 Y168.316 E12.641
G1 X153.341 Y170.529 E12.68769
G1 X149.894 Y172.762 E12.7392
G1 X146.026 Y174.924 E12.79476
G1 X142.262 Y176.709 E12.84701
G1 X138.446 Y178.234 E12.89854
G1 X134.763 Y179.442 E12.94715
G1 X130.569 Y180.53 E13.00148
G1 X126.507 Y181.304 E13.05334
G1 X122.838 Y181.774 E13.09972
G1 X118.36 Y182.056 E13.15599
G1 X114.243 Y182.041 E13.20762
G1 X110.156 Y181.775 E13.25898
G1 X106.081 Y181.239 E13.31052
G1 X102.422 Y180.533 E13.35725
G1 X98.081 Y179.397 E13.41353
G1 X94.543 Y178.231 E13.46024
G1 X90.378 Y176.56 E13.51652
G1 X86.8 Y174.841 E13.5663
G1 X83.264 Y172.86 E13.61712
G1 X79.881 Y170.677 E13.66761
G1 X76.356 Y168.063 E13.72265
G1 X73.309 Y165.484 E13.77271
G1 X70.267 Y162.562 E13.8256
G1 X67.745 Y159.817 E13.87235
G1 X64.994 Y156.403 E13.92733
G1 X62.567 Y152.96 E13.98016
G1 X60.615 Y149.789 E14.02685
G1 X58.516 Y145.834 E14.083
G1 X56.979 Y142.43 E14.12984
G1 X55.394 Y138.22 E14.18625
G1 X54.304 Y134.657 E14.23298
G1 X53.28 Y130.287 E14.28926
G1 X52.593 Y126.234 E14.34082
G1 X52.17 Y122.156 E14.39223
G1 X52.014 Y118.436 E14.43892
G1 X52.104 Y114.099 E14.49332
G1 X52.472 Y109.862 E14.54665
G1 X53.022 Y106.202 E14.59307
G1 X53.975 Y101.796 E14.6496
G1 X54.997 Y98.203 E14.69644
G1 X56.496 Y93.969 E14.75277
G1 X57.96 Y90.546 E14.79945
G1 X59.977 Y86.541 E14.85569
G1 X61.956 Y83.186 E14.90454
G1 X64.283 Y79.755 E14.95652
G1 X66.676 Y76.659 E15.00559
G1 X69.634 Y73.294 E15.06178
G1 X72.27 Y70.663 E15.10848
G0 F15000 X72.553 Y70.946
G1 F1800 X76.546 Y67.435 E15.17516
G1 X78.771 Y66.716 E15.20448
G1 X154.23 Y66.716 E16.15077
G1 X156.455 Y67.435 E16.18009
G1 X160.453 Y70.951 E16.24686
G1 X163.123 Y73.62 E16.2942
G1 X166.024 Y76.911 E16.34922
G1 X168.364 Y79.94 E16.39722
G1 X170.782 Y83.52 E16.45139
G1 X172.675 Y86.741 E16.49824
G1 X174.687 Y90.737 E16.55435
G1 X176.149 Y94.16 E16.60102
G1 X177.627 Y98.336 E16.65658
G1 X178.66 Y102 E16.70432
G1 X179.583 Y106.273 E16.75914
G1 X180.177 Y110.306 E16.81026
G1 X180.491 Y113.991 E16.85664
G1 X180.587 Y118.435 E16.91238
G1 X180.402 Y122.501 E16.96342
G1 X180.008 Y126.208 E17.01017
G1 X179.257 Y130.595 E17.06598
G1 X178.394 Y134.216 E17.11266
G1 X177.094 Y138.45 E17.16821
G1 X175.652 Y142.275 E17.21947
G1 X174.12 Y145.668 E17.26616
G1 X172.126 Y149.424 E17.31948
G1 X169.876 Y153.074 E17.37325
G1 X167.74 Y156.096 E17.41966
G1 X164.961 Y159.545 E17.47521
G1 X162.432 Y162.299 E17.52209
G1 X159.32 Y165.283 E17.57616
G1 X156.097 Y167.994 E17.62898
G1 X153.103 Y170.207 E17.67567
G1 X149.677 Y172.426 E17.72685
G1 X145.831 Y174.575 E17.7821
G1 X142.114 Y176.338 E17.83369
G1 X138.321 Y177.854 E17.88492
G1 X134.638 Y179.062 E17.93352
G1 X130.494 Y180.137 E17.98721
G1 X126.456 Y180.907 E18.03876
G1 X122.787 Y181.377 E18.08515
G1 X118.361 Y181.656 E18.14076
G1 X114.269 Y181.642 E18.19208
G1 X110.208 Y181.378 E18.24311
G1 X106.157 Y180.846 E18.29435
G1 X102.498 Y180.14 E18.34108
G1 X98.206 Y179.017 E18.39671
G1 X94.668 Y177.851 E18.44343
G1 X90.551 Y176.199 E18.49906
G1 X86.996 Y174.492 E18.54851
G1 X83.46 Y172.511 E18.59934
G1 X80.098 Y170.341 E18.64952
G1 X76.614 Y167.758 E18.70391
G1 X73.586 Y165.195 E18.75366
G1 X70.562 Y162.291 E18.80624
G1 X68.04 Y159.546 E18.85298
G1 X65.306 Y156.152 E18.90764
G1 X62.908 Y152.75 E18.95983
G1 X60.956 Y149.579 E19.00653
G1 X58.881 Y145.669 E19.06204
G1 X57.344 Y142.265 E19.10887
G1 X55.777 Y138.103 E19.16464
G1 X54.687 Y134.54 E19.21137
G1 X53.674 Y130.22 E19.26701
G1 X52.991 Y126.193 E19.31823
G1 X52.57 Y122.139 E19.36935
G1 X52.414 Y118.419 E19.41604
G1 X52.504 Y114.107 E19.47012
G1 X52.868 Y109.921 E19.52282
G1 X53.418 Y106.261 E19.56923
G1 X54.36 Y101.905 E19.62512
G1 X55.382 Y98.312 E19.67196
G1 X56.864 Y94.126 E19.72765
G1 X58.328 Y90.703 E19.77434
G1 X60.322 Y86.744 E19.82992
G1 X62.287 Y83.411 E19.87844
G1 X64.614 Y79.98 E19.93043
G1 X66.992 Y76.904 E19.97919
G1 X69.917 Y73.577 E20.03474
G1 X72.553 Y70.946 E20.08145
G0 F15000 X72.836 Y71.229
G1 F1800 X76.746 Y67.791 E20.14674
G1 X78.835 Y67.116 E20.17427
G1 X154.166 Y67.116 E21.11895
G1 X156.255 Y67.791 E21.14648
G1 X160.17 Y71.234 E21.21186
G1 X162.84 Y73.903 E21.2592
G1 X165.707 Y77.156 E21.31358
G1 X168.047 Y80.185 E21.36158
G1 X170.437 Y83.723 E21.41512
G1 X172.33 Y86.944 E21.46197
G1 X174.319 Y90.894 E21.51743
G1 X175.781 Y94.317 E21.56411
G1 X177.242 Y98.445 E21.61902
G1 X178.275 Y102.109 E21.66676
G1 X179.187 Y106.331 E21.72093
G1 X179.778 Y110.34 E21.77175
G1 X180.092 Y114.025 E21.81813
G1 X180.187 Y118.417 E21.87322
G1 X180.004 Y122.459 E21.92396
G1 X179.61 Y126.166 E21.9707
G1 X178.868 Y130.502 E22.02587
G1 X178.005 Y134.123 E22.07255
G1 X176.72 Y138.309 E22.12746
G1 X175.287 Y142.11 E22.1784
G1 X173.755 Y145.503 E22.22509
G1 X171.773 Y149.236 E22.27809
G1 X169.549 Y152.843 E22.33123
G1 X167.413 Y155.865 E22.37764
G1 X164.666 Y159.274 E22.43254
G1 X162.137 Y162.028 E22.47943
G1 X159.043 Y164.994 E22.53318
G1 X155.859 Y167.672 E22.58535
G1 X152.865 Y169.885 E22.63204
G1 X149.46 Y172.09 E22.68291
G1 X145.636 Y174.226 E22.73784
G1 X141.966 Y175.967 E22.78878
G1 X138.196 Y177.474 E22.83969
G1 X134.513 Y178.682 E22.8883
G1 X130.419 Y179.744 E22.94134
G1 X126.405 Y180.51 E22.99259
G1 X122.736 Y180.98 E23.03897
G1 X118.362 Y181.256 E23.09393
G1 X114.295 Y181.243 E23.14494
G1 X110.26 Y180.981 E23.19564
G1 X106.233 Y180.453 E23.24658
G1 X102.574 Y179.747 E23.29331
G1 X98.331 Y178.637 E23.34831
G1 X94.793 Y177.471 E23.39502
G1 X90.724 Y175.838 E23.45
G1 X87.192 Y174.143 E23.49913
G1 X83.656 Y172.162 E23.54996
G1 X80.315 Y170.005 E23.59983
G1 X76.872 Y167.453 E23.65357
G1 X73.863 Y164.907 E23.703
G1 X70.857 Y162.02 E23.75527
G1 X68.335 Y159.275 E23.80202
G1 X65.618 Y155.901 E23.85634
G1 X63.249 Y152.54 E23.90791
G1 X61.297 Y149.369 E23.9546
G1 X59.246 Y145.504 E24.00947
G1 X57.709 Y142.1 E24.05631
G1 X56.16 Y137.986 E24.11144
G1 X55.07 Y134.423 E24.15816
G1 X54.068 Y130.153 E24.21316
G1 X53.389 Y126.152 E24.26406
G1 X52.97 Y122.122 E24.31487
G1 X52.814 Y118.402 E24.36156
G1 X52.904 Y114.115 E24.41533
G1 X53.264 Y109.98 E24.46738
G1 X53.814 Y106.32 E24.51379
G1 X54.745 Y102.014 E24.56904
G1 X55.767 Y98.421 E24.61588
G1 X57.232 Y94.283 E24.67093
G1 X58.696 Y90.86 E24.71762
G1 X60.667 Y86.947 E24.77256
G1 X62.618 Y83.636 E24.82076
G1 X64.945 Y80.205 E24.87275
G1 X67.308 Y77.149 E24.92119
G1 X70.2 Y73.86 E24.97611
G1 X72.836 Y71.229 E25.02282
G0 F15000 X73.119 Y71.512
G1 F1800 X76.946 Y68.147 E25.08672
G1 X78.899 Y67.516 E25.11246
G1 X154.102 Y67.516 E26.05553
G1 X156.055 Y68.147 E26.08127
G1 X159.887 Y71.517 E26.14527
G1 X162.54 Y74.168 E26.1923
G1 X165.39 Y77.401 E26.24634
G1 X167.73 Y80.43 E26.29434
G1 X170.092 Y83.926 E26.34725
G1 X171.985 Y87.147 E26.39411
G1 X173.951 Y91.051 E26.44892
G1 X175.413 Y94.474 E26.4956
G1 X176.857 Y98.554 E26.54987
G1 X177.89 Y102.218 E26.59761
G1 X178.791 Y106.389 E26.65112
G1 X179.379 Y110.374 E26.70164
G1 X179.693 Y114.059 E26.74802
G1 X179.787 Y118.399 E26.80245
G1 X179.606 Y122.417 E26.85289
G1 X179.212 Y126.124 E26.89964
G1 X178.479 Y130.409 E26.95416
G1 X177.616 Y134.03 E27.00084
G1 X176.346 Y138.168 E27.05512
G1 X174.922 Y141.945 E27.10574
G1 X173.39 Y145.338 E27.15242
G1 X171.433 Y149.026 E27.20478
G1 X169.222 Y152.612 E27.25761
G1 X167.086 Y155.634 E27.30402
G1 X164.371 Y159.003 E27.35828
G1 X161.842 Y161.757 E27.40517
G1 X158.766 Y164.705 E27.4586
G1 X155.621 Y167.35 E27.51013
G1 X152.627 Y169.563 E27.55682
G1 X149.243 Y171.754 E27.60738
G1 X145.464 Y173.865 E27.66166
G1 X141.817 Y175.596 E27.71228
G1 X138.071 Y177.094 E27.76288
G1 X134.388 Y178.302 E27.81148
G1 X130.344 Y179.351 E27.86387
G1 X126.354 Y180.113 E27.91481
G1 X122.685 Y180.583 E27.9612
G1 X118.363 Y180.856 E28.01551
G1 X114.321 Y180.844 E28.0662
G1 X110.312 Y180.584 E28.11658
G1 X106.309 Y180.06 E28.1672
G1 X102.65 Y179.354 E28.21394
G1 X98.456 Y178.257 E28.2683
G1 X94.918 Y177.091 E28.31502
G1 X90.897 Y175.477 E28.36935
G1 X87.388 Y173.794 E28.41815
G1 X83.852 Y171.813 E28.46898
G1 X80.532 Y169.669 E28.51854
G1 X77.13 Y167.148 E28.57164
G1 X74.14 Y164.619 E28.62075
G1 X71.152 Y161.749 E28.67271
G1 X68.63 Y159.004 E28.71945
G1 X65.945 Y155.671 E28.77313
G1 X63.59 Y152.33 E28.82439
G1 X61.638 Y149.159 E28.87108
G1 X59.611 Y145.339 E28.92531
G1 X58.074 Y141.935 E28.97215
G1 X56.543 Y137.869 E29.02663
G1 X55.453 Y134.306 E29.07336
G1 X54.462 Y130.086 E29.12772
G1 X53.787 Y126.111 E29.17828
G1 X53.37 Y122.105 E29.22879
G1 X53.214 Y118.385 E29.27548
G1 X53.303 Y114.15 E29.3286
G1 X53.66 Y110.039 E29.38035
G1 X54.21 Y106.379 E29.42676
G1 X55.13 Y102.123 E29.48136
G1 X56.152 Y98.53 E29.52821
G1 X57.6 Y94.44 E29.58262
G1 X59.064 Y91.017 E29.62931
G1 X61.012 Y87.15 E29.68361
G1 X62.949 Y83.861 E29.73147
G1 X65.276 Y80.43 E29.78346
G1 X67.624 Y77.394 E29.83159
G1 X70.483 Y74.143 E29.88588
G1 X73.119 Y71.512 E29.93259
G0 F15000 X73.402 Y71.795
G1 F1800 X77.146 Y68.503 E29.99511
G1 X78.963 Y67.916 E30.01905
G1 X154.038 Y67.916 E30.96052
G1 X155.855 Y68.503 E30.98446
G1 X159.604 Y71.8 E31.04707
G1 X162.257 Y74.451 E31.09411
G1 X165.073 Y77.646 E31.14751
G1 X167.413 Y80.675 E31.19551
G1 X169.747 Y84.129 E31.24779
G1 X171.64 Y87.35 E31.29464
G1 X173.583 Y91.208 E31.34881
G1 X175.045 Y94.631 E31.39549
G1 X176.472 Y98.663 E31.44912
G1 X177.505 Y102.327 E31.49686
G1 X178.395 Y106.447 E31.54972
G1 X178.98 Y110.408 E31.59993
G1 X179.294 Y114.093 E31.64631
G1 X179.387 Y118.381 E31.7001
G1 X179.208 Y122.375 E31.75023
G1 X178.814 Y126.082 E31.79698
G1 X178.09 Y130.316 E31.85085
